!!!!SEGMENT: pl-cz--ii-267--002_koperski-maksymilian--vidi-aquam-in-g.krn
!!!cenid: 18xx:910
!!!COM: Koperski, Maksymilian
!!!COM-rismID:
!!!CDT: 1812-1886
!!!CNT:
!!!OTL: Vidi aquam in G
!!!PDT: 1839
!!!AGN: Sacred
!!!SMS-siglum: PL-CZ
!!!SMS-shelfmark: II-267
!!!SMS-shelfwork: 002 W
!!!SMS-variant:
!!!SMS-altvar:
!!!NIFC-rismSourceID: 300000606
!!!NIFC-islandoraID: pl-cz:33410
!!!URL-pdf-islandora: https://repozytorium.nifc.pl/islandora/object/pl-cz%3A33410/datastream/PDF/view
!!!URL-scan:
!!!ONB-nifc: Vidi aquam No II
!!!AIN: 1 alto 1 bass 1 cello 2 clars 2 clrno 2 cor 2 flt 1 organ 1 soprn 1 tenor 1 timpa 1 viola 2 violn
!!!key: G
**kern	**fba	**dynam	**kern	**dynam	**kern	**dynam	**kern	**dynam	**kern	**dynam	**kern	**text	**dynam	**kern	**text	**dynam	**kern	**text	**dynam	**kern	**text	**dynam	**kern	**kern	**kern	**kern	**dynam	**kern	**dynam	**kern	**kern	**kern	**dynam	**kern	**dynam
*part18	*part18	*part18	*part17	*part17	*part16	*part16	*part15	*part15	*part14	*part14	*part13	*part13	*part13	*part12	*part12	*part12	*part11	*part11	*part11	*part10	*part10	*part10	*part9	*part8	*part7	*part6	*part6	*part5	*part5	*part4	*part3	*part2	*part2	*part1	*part1
*staff18	*	*	*staff17	*	*staff16	*	*staff15	*	*staff14	*	*staff13	*staff13	*	*staff12	*staff12	*	*staff11	*staff11	*	*staff10	*staff10	*	*staff9	*staff8	*staff7	*staff6	*	*staff5	*	*staff4	*staff3	*staff2	*	*staff1	*
*I"Organ	*	*	*I"Violin	*	*I"Alto Viola	*	*I"Violino 2do	*	*I"Violino 1mo	*	*I"Baſ	*	*	*I"Tenor.	*	*	*I"Alt.	*	*	*I"Cant	*	*	*I"Tympan in C. G.	*I"Clarino 2do in C.	*I"Clarino 1mo in C.	*I"Corno 2do in G.	*	*I"Corno in G 1mo	*	*I"Clarnet 2do	*I"Clarinetto 1mo	*I"Flaut 2do	*	*I"Flaut 1mo	*
*I'org	*	*	*I'vlc	*	*I'vla	*	*I'vl II	*	*I'vl I	*	*I'B	*	*	*I'T	*	*	*I'A	*	*	*I'C	*	*	*I'timp	*I'clno II	*I'clno I	*I'cor II	*	*I'cor I	*	*I'cl II	*I'cl I	*I'fl II	*	*I'fl I	*
*ICklav	*	*	*ICstr	*	*ICstr	*	*ICstr	*	*ICstr	*	*ICvox	*	*	*ICvox	*	*	*ICvox	*	*	*ICvox	*	*	*ICidio	*ICbras	*ICbras	*ICbras	*	*ICbras	*	*ICww	*ICww	*ICww	*	*ICww	*
*Iorgan	*	*	*Icello	*	*Iviola	*	*Ivioln	*	*Ivioln	*	*Ibass	*	*	*Itenor	*	*	*Ialto	*	*	*Isoprn	*	*	*Itimpa	*Iclrno	*Iclrno	*Icor	*	*Icor	*	*Iclars	*Iclars	*Iflt	*	*Iflt	*
*clefF4	*	*	*clefF4	*	*clefC3	*	*clefG2	*	*clefG2	*	*clefF4	*	*	*clefC4	*	*	*clefC3	*	*	*clefC1	*	*	*clefF4	*clefG2	*clefG2	*clefG2	*	*clefG2	*	*clefG2	*clefG2	*clefG2	*	*clefG2	*
*G:	*	*	*G:	*	*G:	*	*G:	*	*G:	*	*G:	*	*	*G:	*	*	*G:	*	*	*G:	*	*	*G:	*G:	*G:	*G:	*	*G:	*	*G:	*G:	*G:	*	*G:	*
*	*	*	*	*	*	*	*	*	*	*	*	*	*	*	*	*	*	*	*	*	*	*	*	*	*	*ITrd3c5	*	*ITrd3c5	*	*ITrd3c5	*ITrd3c5	*	*	*	*
*k[f#]	*	*	*k[f#]	*	*k[f#]	*	*k[f#]	*	*k[f#]	*	*k[f#]	*	*	*k[f#]	*	*	*k[f#]	*	*	*k[f#]	*	*	*k[f#]	*k[f#]	*k[f#]	*k[f#]	*	*k[f#]	*	*k[f#]	*k[f#]	*k[f#]	*	*k[f#]	*
*M2/2	*	*	*M2/2	*	*M2/2	*	*M2/2	*	*M2/2	*	*M2/2	*	*	*M2/2	*	*	*M2/2	*	*	*M2/2	*	*	*M2/2	*M2/2	*M2/2	*M2/2	*	*M2/2	*	*M2/2	*M2/2	*M2/2	*	*M2/2	*
*met(c|)	*	*	*met(c|)	*	*met(c|)	*	*met(c|)	*	*met(c|)	*	*met(c|)	*	*	*met(c|)	*	*	*met(c|)	*	*	*met(c|)	*	*	*met(c|)	*met(c|)	*met(c|)	*met(c|)	*	*met(c|)	*	*met(c|)	*met(c|)	*met(c|)	*	*met(c|)	*
=1	=1	=1	=1	=1	=1	=1	=1	=1	=1	=1	=1	=1	=1	=1	=1	=1	=1	=1	=1	=1	=1	=1	=1	=1	=1	=1	=1	=1	=1	=1	=1	=1	=1	=1	=1
!!LO:TX:t=P:problem:all\right	!	!	!	!	!	!	!	!	!	!	!	!	!	!	!	!	!	!	!	!	!	!	!	!	!	!	!	!	!	!	!	!	!	!
! 	!	!	!	!	! 	!	! 	!	!	!	!	!	!	!	!	!	!LO:TX:a:t=4	!	!	!	!	!	!	!	!	!LO:TX:a:B:t=allegro Vivace	!	!LO:TX:a:B:t=allegro Vivace	!	!	!	! 	!	!LO:TX:a:B:t=allegro vivace	!
!LO:TX:a:B:t=allegro Vivace	!	!	!LO:TX:a:B:t=allegro Vivace	!	!LO:TX:a:B:t=allegro Vivace	!	!LO:TX:a:B:t=allegro Vivace	!	!LO:TX:a:B:t=allegro Vivace	!	!LO:TX:a:B:t=allegro vivace	!	!	!LO:TX:a:B:t=allegro Vivace	!	!	!LO:TX:a:B:t=allegro Vivace	!	!	!LO:TX:a:B:t=allegro vivace	!	!	!LO:TX:a:t=Tacet	!	!	!LO:TX:a:t=2	!	!LO:TX:a:t=2	!	!	!	!LO:TX:a:B:t=allegro Vivace	!	! 	!
!	!	!	!	!	!	!	!	!	!	!LO:DY:b	!	!	!	!	!	!	!	!	!	!	!	!	!	!	!	!	!	!	!	!	!	!	!	!	!
!	!	!LO:HP:b:t=cres	!	!LO:HP:b:t=cres	!	!LO:HP:b:t=Cres	!	!LO:DY:b	!	!	!	!	!	!	!	!	!	!	!	!	!	!	!	!	!	!	!	!	!	!	!	!	!	!	!LO:HP:b:t=cr
!	!	!	!	!	!	!	!	!	!	!	!	!	!	!	!	!	!	!	!	!	!	!	!	!	!	!	!	!	!	!	!	!	!LO:HP:b:t=cres	!	!
2G\	3	<	2G\	<	2d\	<	2g/	p	2b\	p	1r	.	.	1r	.	.	1r	.	.	1r	.	.	1ryy	1ryy	1ryy	1r	.	1r	.	1ryy	1ryy	2gg\	<	2bb\	<
2F#\	6:5 3_	.	2F#\	.	2f#\	.	2a/	.	4dd\	.	.	.	.	.	.	.	.	.	.	.	.	.	.	.	.	.	.	.	.	.	.	2ff#\	.	4dd\	.
.	.	.	.	.	.	.	.	.	4cc\	.	.	.	.	.	.	.	.	.	.	.	.	.	.	.	.	.	.	.	.	.	.	.	.	4ccc\	.
=2	=2	=2	=2	=2	=2	=2	=2	=2	=2	=2	=2	=2	=2	=2	=2	=2	=2	=2	=2	=2	=2	=2	=2	=2	=2	=2	=2	=2	=2	=2	=2	=2	=2	=2	=2
2G\	3 1	.	2G\	.	2g\	.	2g/	.	2.b\	.	1r	.	.	1r	.	.	1r	.	.	1r	.	.	1ryy	1ryy	1ryy	1r	.	1r	.	1ryy	1ryy	2gg\	.	2bb\	.
2C\	6 3	.	2C/	.	2c\	.	2e/	.	.	.	.	.	.	.	.	.	.	.	.	.	.	.	.	.	.	.	.	.	.	.	.	2ee\	.	2aa\	.
.	.	.	.	.	.	.	.	.	4a\	.	.	.	.	.	.	.	.	.	.	.	.	.	.	.	.	.	.	.	.	.	.	.	.	.	.
=3	=3	=3	=3	=3	=3	=3	=3	=3	=3	=3	=3	=3	=3	=3	=3	=3	=3	=3	=3	=3	=3	=3	=3	=3	=3	=3	=3	=3	=3	=3	=3	=3	=3	=3	=3
!	!	!	!	!	!	!	!	!	!	!	!	!	!	!	!	!	!	!	!	!	!	!	!	!	!	!	!LO:HP:b:t=cres	!	!LO:HP:b:t=cres	!	!	!	!	!	!
2D\	4:3 5_	.	2D\	.	1A 1d	.	1c 1d	.	(4g/	.	1r	.	.	1r	.	.	1r	.	.	1r	.	.	1ryy	1ryy	1ryy	1d	<	1a	<	1ryy	1ryy	1dd	.	4gg\	.
.	.	.	.	.	.	.	.	.	4f#/	.	.	.	.	.	.	.	.	.	.	.	.	.	.	.	.	.	.	.	.	.	.	.	.	4ff#\	.
2DD/	.	.	4D\	.	.	.	.	.	4e/	.	.	.	.	.	.	.	.	.	.	.	.	.	.	.	.	.	.	.	.	.	.	.	.	4ee\	.
.	.	.	4D\	.	.	.	.	.	4f#/)	.	.	.	.	.	.	.	.	.	.	.	.	.	.	.	.	.	.	.	.	.	.	.	.	4ff#\	.
=4	=4	=4	=4	=4	=4	=4	=4	=4	=4	=4	=4	=4	=4	=4	=4	=4	=4	=4	=4	=4	=4	=4	=4	=4	=4	=4	=4	=4	=4	=4	=4	=4	=4	=4	=4
!	!	!	!	!	!	!	!	!	!	!	!	!	!	!	!	!	!	!	!	!	!	!	!	!	!	! 	!	! 	!	!	!	!	!	!	!
4GG/	2:3	.	4GG/	.	4G/ 4d	.	4B/ 4d	.	4g/	.	1r	.	.	1r	.	.	1r	.	.	1r	.	.	1ryy	1ryy	1ryy	4B/	.	4g\	.	1ryy	1ryy	4b\	.	4gg\	.
4r	.	.	4r	.	4r	.	4r	.	(4d/	.	.	.	.	.	.	.	.	.	.	.	.	.	.	.	.	4r	.	4r	.	.	.	4r	.	4r	.
2r	.	.	2r	.	2r	.	2r	.	4g/	.	.	.	.	.	.	.	.	.	.	.	.	.	.	.	.	2r	.	2r	.	.	.	2r	.	2r	.
.	.	.	.	.	.	.	.	.	4a/)	.	.	.	.	.	.	.	.	.	.	.	.	.	.	.	.	.	.	.	.	.	.	.	.	.	.
=5	=5	=5	=5	=5	=5	=5	=5	=5	=5	=5	=5	=5	=5	=5	=5	=5	=5	=5	=5	=5	=5	=5	=5	=5	=5	=5	=5	=5	=5	=5	=5	=5	=5	=5	=5
*^	*	*	*	*	*	*	*	*	*	*	*	*	*	*	*	*	*	*	*	*	*	*	*	*	*	*	*	*	*	*	*	*	*	*	*
!LO:TX:a:t=1	!	!	!	!	!	!	!	!	!	!	!	!	!	!	!	!	!	!	!	!	!	!	!	!	!	!	!	!	!	!	!	!	!	!	!	!
!LO:TX:b:i:t=Violoncello	!	!	!	!LO:TX:a:t=sotto	!	!	!	!	!	!	!	! 	!	!	! 	!	!	! 	!	!	! 	!	!	!	!	!	!LO:TX:a:t=13	!	!LO:TX:a:t=13	!	!	!	!LO:TX:a:t=9	!	!LO:TX:a:t=8	!
!	!	!	!	!	!	!	!	!	!	!	!	!	!	!LO:DY:b	!	!	!	!	!	!	!	!	!	!	!	!	!	!	!	!	!	!	!	!	!	!
1rCC	2G^>\	.	.	2G\	.	2G^/	.	2d^>/	.	2b^\	.	2G^\	E-	f	2G\	E-	.	2d\	E-	.	2b\	E-	.	1ryy	1ryy	1ryy	1r	.	1r	.	1ryy	1ryy	1r	.	1r	.
.	4A\	.	.	4A\	.	(4F#/	.	4c/	.	(4a\	.	4A\	-gre-	.	4A\	-gre-	.	4c\	-gre-	.	4a\	-gre-	.	.	.	.	.	.	.	.	.	.	.	.	.	.
.	4B\	.	.	4B\	.	4G/)	.	4B/	.	4g\)	.	4B\	-di-	.	4B\	-di-	.	4B\	-di-	.	4g\	-di-	.	.	.	.	.	.	.	.	.	.	.	.	.	.
=6	=6	=6	=6	=6	=6	=6	=6	=6	=6	=6	=6	=6	=6	=6	=6	=6	=6	=6	=6	=6	=6	=6	=6	=6	=6	=6	=6	=6	=6	=6	=6	=6	=6	=6	=6	=6
!LO:TX:a:t=1	!	!	!	!	!	!	!	!	!	!	!	!	!	!	!	!	!	!	!	!	!	!	!	!	!	!	!	!	!	!	!	!	!	!	!	!
1rEE	2c\	.	.	2c\	.	4r	.	4r	.	4r	.	2c\	-en-	.	2c\	-en-	.	2d\	-en-	.	2f#/	-en-	.	1ryy	1ryy	1ryy	1r	.	1r	.	1ryy	1ryy	1r	.	1r	.
.	.	.	.	.	.	4A/	.	4c/	.	4f#/	.	.	.	.	.	.	.	.	.	.	.	.	.	.	.	.	.	.	.	.	.	.	.	.	.	.
.	4C\	.	.	4C/	.	4A/	.	4B/	.	4e/	.	4C/	-tem	.	4c\	-tem	.	4c\	-tem	.	4e/	-tem	.	.	.	.	.	.	.	.	.	.	.	.	.	.
.	4r	.	.	4r	.	4r	.	4r	.	4r	.	4r	.	.	4r	.	.	4r	.	.	4r	.	.	.	.	.	.	.	.	.	.	.	.	.	.	.
=7	=7	=7	=7	=7	=7	=7	=7	=7	=7	=7	=7	=7	=7	=7	=7	=7	=7	=7	=7	=7	=7	=7	=7	=7	=7	=7	=7	=7	=7	=7	=7	=7	=7	=7	=7	=7
!LO:TX:a:t=1	!	!	!	!	!	!	!	!	!	!	!	!	!	!	!	!	!	!	!	!	!	!	!	!	!	!	!	!	!	!	!	!	!	!	!	!
1rEE	2A^>\	.	.	2A\	.	(2A^/	.	2e^/	.	(2cc^\	.	(2A\	de	.	(2A^\	de	.	(2e\	de	.	2cc^\	de	.	1ryy	1ryy	1ryy	1r	.	1r	.	1ryy	1ryy	1r	.	1r	.
.	4B\	.	.	4B\	.	4G#X/	.	4d/	.	4b\	.	4B\	.	.	4B\	.	.	4d\	.	.	(4b\	.	.	.	.	.	.	.	.	.	.	.	.	.	.	.
.	4c\	.	.	4c\	.	4A/)	.	4c/	.	4a\)	.	4c\)	.	.	4c\)	.	.	4c\)	.	.	4a\)	.	.	.	.	.	.	.	.	.	.	.	.	.	.	.
!	!	!	!	!LO:LB:g=original	!	!	!	!	!	!	!	!	!	!	!	!	!	!	!	!	!	!	!	!	!	!	!	!	!	!	!	!	!	!	!	!
=8	=8	=8	=8	=8	=8	=8	=8	=8	=8	=8	=8	=8	=8	=8	=8	=8	=8	=8	=8	=8	=8	=8	=8	=8	=8	=8	=8	=8	=8	=8	=8	=8	=8	=8	=8	=8
!LO:TX:a:t=1	!	!	!	!	!	!	!	!	!	!	!	!	!	!	!	!	!	!	!	!	!	!	!	!	!	!	!	!	!	!	!	!	!	!	!	!
1rEE	2d\	.	.	2d\	.	4r	.	4r	.	4r	.	2d\	tem-	.	2d\	tem-	.	2d\	tem-	.	2g\	tem-	.	1ryy	1ryy	1ryy	1r	.	1r	.	1ryy	1ryy	1r	.	1r	.
.	.	.	.	.	.	4A/	.	4d/	.	4g/	.	.	.	.	.	.	.	.	.	.	.	.	.	.	.	.	.	.	.	.	.	.	.	.	.	.
.	4D\	.	.	4D\	.	4A/	.	4d/	.	4f#/	.	4D\	-plo	.	4d\	-plo	.	4d\	-plo	.	4f#\	-plo	.	.	.	.	.	.	.	.	.	.	.	.	.	.
.	4r	.	.	4r	.	4r	.	4r	.	4r	.	4r	.	.	4r	.	.	4r	.	.	4r	.	.	.	.	.	.	.	.	.	.	.	.	.	.	.
!LO:LB:g=original	!	!	!	!	!	!	!	!LO:LB:g=original	!	!LO:LB:g=original	!	!	!	!	!	!	!	!	!	!	!	!	!	!	!	!	!	!	!	!	!	!	!	!	!	!
=9	=9	=9	=9	=9	=9	=9	=9	=9	=9	=9	=9	=9	=9	=9	=9	=9	=9	=9	=9	=9	=9	=9	=9	=9	=9	=9	=9	=9	=9	=9	=9	=9	=9	=9	=9	=9
!LO:TX:a:t=1	!	!	!	!	!	!	!	!	!	!	!	!	!	!	!	!	!	!	!	!	!	!	!	!	!	!	!	!	!	!	!	!	!	!	!	!
1rEE	4d\	.	.	4d\	.	2.d\	.	2f#/	.	(2a\	.	4d\	a	.	4d\	a	.	4f#\	a	.	4a\	a	.	1ryy	1ryy	1ryy	1r	.	1r	.	1ryy	1ryy	1r	.	1r	.
.	4c\	.	.	4c\	.	.	.	.	.	.	.	4c\	la-	.	4d\	la-	.	4f#\	la-	.	4a\	la-	.	.	.	.	.	.	.	.	.	.	.	.	.	.
.	4B\	.	.	4B\	.	.	.	4g/	.	4b\)	.	4B\	-te-	.	4d\	-te-	.	4g\	-te-	.	4b\	-te-	.	.	.	.	.	.	.	.	.	.	.	.	.	.
.	4A\	.	.	4A\	.	4d\	.	4a/	.	4cc\	.	4A\	-re	.	4c\	-re	.	4f#\	-re	.	4cc\	-re	.	.	.	.	.	.	.	.	.	.	.	.	.	.
=10	=10	=10	=10	=10	=10	=10	=10	=10	=10	=10	=10	=10	=10	=10	=10	=10	=10	=10	=10	=10	=10	=10	=10	=10	=10	=10	=10	=10	=10	=10	=10	=10	=10	=10	=10	=10
!LO:TX:a:t=1	!	!	!	!	!	!	!	!	!	!	!	!	!	!	!	!	!	!	!	!	!	!	!	!	!	!	!	!	!	!	!	!	!	!	!	!
1rEE	2G\	.	.	2G\	.	2g\	.	2b\	.	2dd\	.	2G\	dex-	.	2B\	dex-	.	2g\	dex-	.	2dd\	dex-	.	1ryy	1ryy	1ryy	1r	.	1r	.	1ryy	1ryy	1r	.	1r	.
.	2G#X^>\	.	.	2G#X^\	.	2g#X^\	.	2b\	.	2ee^\	.	2G#X\	-tro	.	2B\	-tro	.	2g#X\	-tro	.	2ee^\	-tro	.	.	.	.	.	.	.	.	.	.	.	.	.	.
!	!	!	!	!	!	!LO:LB:g=original	!	!	!	!	!	!	!	!	!LO:LB:g=original	!	!	!	!	!	!	!	!	!	!	!	!	!	!	!	!	!	!	!	!	!
=11	=11	=11	=11	=11	=11	=11	=11	=11	=11	=11	=11	=11	=11	=11	=11	=11	=11	=11	=11	=11	=11	=11	=11	=11	=11	=11	=11	=11	=11	=11	=11	=11	=11	=11	=11	=11
!LO:TX:a:t=1	!	!	!	!	!	!	!	!	!	!	!	!	!	!	!	!	!	!	!	!	!	!	!	!	!	!	!	!	!	!	!	!	!	!	!	!
1rCC	2A\	.	.	2A\	.	2e\	.	2a\	.	2cc\	.	2A\	al-	.	2A\	al-	.	2a\	al-	.	2cc\	al-	.	1ryy	1ryy	1ryy	1r	.	1r	.	1ryy	1ryy	1r	.	1r	.
.	2F#^>\	.	.	2F#^\	.	2f#^\	.	2a\	.	2dd^\	.	2F#\	-le-	.	2A\	-le-	.	2f#\	-le-	.	2dd^\	-le-	.	.	.	.	.	.	.	.	.	.	.	.	.	.
!	!	!	!	!	!	!	!	!	!	!	!	!LO:LB:g=original	!	!	!	!	!	!	!	!	!	!	!	!	!	!	!	!	!	!	!	!	!	!	!	!
=12	=12	=12	=12	=12	=12	=12	=12	=12	=12	=12	=12	=12	=12	=12	=12	=12	=12	=12	=12	=12	=12	=12	=12	=12	=12	=12	=12	=12	=12	=12	=12	=12	=12	=12	=12	=12
!LO:TX:a:t=1	!	!	!	!	!	!	!	!	!	!	!	!	!	!	!	!	!	!	!	!	!	!	!	!	!	!	!	!	!	!	!	!	!	!	!	!
1rEE	2G\	.	.	2G\	.	1e	.	1g	.	2b\	.	2G\	-lu-	.	1e	-lu-	.	1g	-lu-	.	2b\	-lu-	.	1ryy	1ryy	1ryy	1r	.	1r	.	1ryy	1ryy	1r	.	1r	.
.	2C/	.	.	2C\	.	.	.	.	.	4a\	.	2C/	.	.	.	.	.	.	.	.	(4a\	.	.	.	.	.	.	.	.	.	.	.	.	.	.	.
.	.	.	.	.	.	.	.	.	.	4a#X\	.	.	.	.	.	.	.	.	.	.	4a#X\)	.	.	.	.	.	.	.	.	.	.	.	.	.	.	.
!	!	!	!	!	!	!	!	!	!	!	!	!	!	!	!	!	!	!LO:LB:g=original	!	!	!LO:LB:g=original	!	!	!	!	!	!	!	!	!	!	!	!	!	!	!
=13	=13	=13	=13	=13	=13	=13	=13	=13	=13	=13	=13	=13	=13	=13	=13	=13	=13	=13	=13	=13	=13	=13	=13	=13	=13	=13	=13	=13	=13	=13	=13	=13	=13	=13	=13	=13
!LO:TX:a:t=1	!	!	!	!	!	!	!	!	!	!	!	!	!	!	!	!	!	!	!	!	!	!	!	!	!	!	!	!	!	!	!	!	!	!	!	!
1rEE	4BB/	.	.	4BB/	.	4d#X\	.	4f#/	.	4.b\	.	4BB/	-ja	.	4d#X\	-ja	.	4f#\	-ja	.	4b\	-ja	.	1ryy	1ryy	1ryy	1r	.	1r	.	1ryy	1ryy	1r	.	4r	.
.	4r	.	.	4r	.	4r	.	4r	.	.	.	4r	.	.	4r	.	.	4r	.	.	4r	.	.	.	.	.	.	.	.	.	.	.	.	.	8r	.
.	.	.	.	.	.	.	.	.	.	8d/	.	.	.	.	.	.	.	.	.	.	.	.	.	.	.	.	.	.	.	.	.	.	.	.	8dd\	.
.	2r	.	.	2r	.	2r	.	2r	.	(8e/L	.	2r	.	.	2r	.	.	2r	.	.	2r	.	.	.	.	.	.	.	.	.	.	.	.	.	(8ee\L	.
.	.	.	.	.	.	.	.	.	.	8f#/	.	.	.	.	.	.	.	.	.	.	.	.	.	.	.	.	.	.	.	.	.	.	.	.	8ff#\	.
.	.	.	.	.	.	.	.	.	.	8g/	.	.	.	.	.	.	.	.	.	.	.	.	.	.	.	.	.	.	.	.	.	.	.	.	8gg\	.
.	.	.	.	.	.	.	.	.	.	8a/J)	.	.	.	.	.	.	.	.	.	.	.	.	.	.	.	.	.	.	.	.	.	.	.	.	8aa\J)	.
*v	*v	*	*	*	*	*	*	*	*	*	*	*	*	*	*	*	*	*	*	*	*	*	*	*	*	*	*	*	*	*	*	*	*	*	*	*
!	!	!	!	!	!	!	!	!	!	!	!	!	!	!	!	!	!	!	!	!	!	!	!	!	!	!	!	!	!	!	!	!	!	!LO:LB:g=original	!
=14	=14	=14	=14	=14	=14	=14	=14	=14	=14	=14	=14	=14	=14	=14	=14	=14	=14	=14	=14	=14	=14	=14	=14	=14	=14	=14	=14	=14	=14	=14	=14	=14	=14	=14	=14
!LO:TX:a:i:t=Organ	!	!	!	!	!	!	!	!	!	!LO:DY:a	!	!	!	!	!	!	!	!	!	!	!	!	!	!	!	!	!	!	!	!	!	!	!	!	!
!	!	!LO:DY:b:t=forte	!	!	!	!	!	!	!	!LO:HP:t=cres	!	!	!	!	!	!	!	!	!	!	!	!	!	!	!	!	!	!	!	!	!	!	!	!	!
2GG/	10 8	f	2GG/	.	(2G^/	.	2d/	.	(2b\	<	2G\	Et	.	2G\	Et	.	2d\	Et	.	2b\	Et	.	1ryy	1ryy	1ryy	1r	.	1r	.	1ryy	1ryy	2dd\	.	2bb^\	.
4AA/	6	.	4AA/	.	4F#/	.	4c/	.	4a\	.	4A\	om-	.	4A\	om-	.	4c\	om-	.	4a\	om-	.	.	.	.	.	.	.	.	.	.	4cc\	.	4aa\	.
4BB/	6 3	.	4BB/	.	4G/)	.	4B/	.	4g\)	.	4B\	-nes	.	4B\	-nes	.	4B\	-nes	.	4g\	-nes	.	.	.	.	.	.	.	.	.	.	4dd\	.	4gg\	.
=15	=15	=15	=15	=15	=15	=15	=15	=15	=15	=15	=15	=15	=15	=15	=15	=15	=15	=15	=15	=15	=15	=15	=15	=15	=15	=15	=15	=15	=15	=15	=15	=15	=15	=15	=15
4r	.	.	4r	.	2A/	.	2d/	.	(2f#/	.	2c\	ad	.	2c\	ad	.	2d\	ad	.	2f#/	ad	.	1ryy	1ryy	1ryy	1r	.	1r	.	1ryy	1ryy	2cc\	.	2ff#\	.
4C/	4 2	.	4C/	.	.	.	.	.	.	.	.	.	.	.	.	.	.	.	.	.	.	.	.	.	.	.	.	.	.	.	.	.	.	.	.
4C/	3 1	.	4C/	.	4A/	.	4c/	.	4e/)	.	4C/	quos	.	4c\	quos	.	4c\	quos	.	4e/	quos	.	.	.	.	.	.	.	.	.	.	4cc\	.	4ee\	.
4r	.	.	4r	.	4r	.	4r	.	4r	.	4r	.	.	4r	.	.	4r	.	.	4r	.	.	.	.	.	.	.	.	.	.	.	4r	.	4r	.
!	!	!	!LO:LB:g=original	!	!	!	!	!	!	!	!	!	!	!	!	!	!	!	!	!	!	!	!	!	!	!	!	!	!	!	!	!	!	!	!
=16	=16	=16	=16	=16	=16	=16	=16	=16	=16	=16	=16	=16	=16	=16	=16	=16	=16	=16	=16	=16	=16	=16	=16	=16	=16	=16	=16	=16	=16	=16	=16	=16	=16	=16	=16
*	*	*	*	*	*	*	*	*	*	*	*	*	*	*	*ij	*	*	*	*	*	*ij	*	*	*	*	*	*	*	*	*	*	*	*	*	*
2AA/	10 8	.	2AA/	.	(2A^/	.	2e/	.	(2cc\	.	2A\	ad	.	2A\	ad	.	2e\	ad	.	2cc\	ad	.	1ryy	1ryy	1ryy	1r	.	1r	.	1ryy	1ryy	2ee\	.	(2ccc\	.
4BB/	8 -4r	.	4BB/	.	4G#X/	.	4d/	.	4b\	.	4B\	quos	.	4B\	quos	.	4d\	quos	.	4b\	quos	.	.	.	.	.	.	.	.	.	.	4dd\	.	4bb\	.
*	*	*	*	*	*	*	*	*	*	*	*	*	*	*	*Xij	*	*	*	*	*	*Xij	*	*	*	*	*	*	*	*	*	*	*	*	*	*
4C/	6 3	.	4C/	.	4A/)	.	4c/	.	4a\)	.	4c\	per-	.	4c\	per-	.	4c\	per-	.	4a\	per-	.	.	.	.	.	.	.	.	.	.	4cc\	.	4aa\)	.
!LO:LB:g=original	!	!	!	!	!	!	!	!	!LO:LB:g=original	!	!	!	!	!	!	!	!	!	!	!	!	!	!	!	!	!	!	!	!	!	!	!	!	!	!
=17	=17	=17	=17	=17	=17	=17	=17	=17	=17	=17	=17	=17	=17	=17	=17	=17	=17	=17	=17	=17	=17	=17	=17	=17	=17	=17	=17	=17	=17	=17	=17	=17	=17	=17	=17
4r	.	.	4r	.	4r	.	4r	.	2g/	.	2d\	-ve-	.	2d\	-ve-	.	2d\	-ve-	.	2g\	-ve-	.	1ryy	1ryy	1ryy	1r	.	1r	.	1ryy	1ryy	2b\	.	2gg\	.
4D\	4 1_	.	4D\	.	4A/	.	4d/	.	.	.	.	.	.	.	.	.	.	.	.	.	.	.	.	.	.	.	.	.	.	.	.	.	.	.	.
4D\	3	.	4D\	.	4A/	.	4d/	.	4f#/	.	4D\	-nit	.	4d\	-nit	.	4d\	-nit	.	4f#\	-nit	.	.	.	.	.	.	.	.	.	.	4a\	.	4ff#\	.
4r	.	.	4r	.	4r	.	4r	.	4r	.	4r	.	.	4r	.	.	4r	.	.	4r	.	.	.	.	.	.	.	.	.	.	.	4r	.	4r	.
!	!	!	!	!	!	!	!LO:LB:g=original	!	!	!	!	!	!	!	!	!	!	!	!	!	!	!	!	!	!	!	!	!	!	!	!	!	!	!	!
=18	=18	=18	=18	=18	=18	=18	=18	=18	=18	=18	=18	=18	=18	=18	=18	=18	=18	=18	=18	=18	=18	=18	=18	=18	=18	=18	=18	=18	=18	=18	=18	=18	=18	=18	=18
!	!	!	!	!	!	!	!	!	!	!	!	!	!	!	!	!	!	!	!	!	!	!LO:DY:b	!	!	!	!	!	!	!	!	!	!	!	!	!
!	!	!	!	!	!	!	!	!	!	!	!	!	!	!	!	!	!	!	!LO:DY:b	!	!	!	!	!	!	!	!	!	!	!	!	!	!	!	!
!	!	!	!	!	!	!	!	!	!	!	!	!	!	!	!	!LO:DY:b	!	!	!	!	!	!	!	!	!	!	!	!	!	!	!	!	!	!	!
!	!	!	!	!	!	!	!	!	!	!	!	!	!LO:DY:b	!	!	!	!	!	!	!	!	!	!	!	!	!	!	!	!	!	!	!	!	!	!
!	!	!	!	!	!	!	!	!	!	!LO:DY:b	!	!	!	!	!	!	!	!	!	!	!	!	!	!	!	!	!	!	!	!	!	!	!	!	!
4D\	5_ 3_	.	4D\	.	2d^\	.	2f#/	.	2a\	f	4d\	a-	f	4d\	a-	f	4f#\	a-	f	4a\	a-	f	1ryy	1ryy	1ryy	2d^/	.	2a^\	.	1ryy	1ryy	2ff#\	f <	2aa\	f
4C\	.	.	4C\	.	.	.	.	.	.	.	4c\	-qua	.	4d\	-qua	.	4f#\	-qua	.	4a\	-qua	.	.	.	.	.	.	.	.	.	.	.	.	.	.
4BB\	8 6	.	4BB\	.	4d\	.	4g/	.	4b\	.	4B\	is-	.	4d\	is-	.	4g\	is-	.	4b\	is-	.	.	.	.	2r	.	2r	.	.	.	4gg\	.	4bb\	.
4AA\	10 8	.	4AA\	.	4d\	.	4a/	.	4cc\	.	4A\	-ta	.	4d\	-ta	.	4a\	-ta	.	4cc\	-ta	.	.	.	.	.	.	.	.	.	.	4aa\	[[	4ccc\	.
!	!	!	!	!	!	!	!	!	!	!	!	!	!	!LO:LB:g=original	!	!	!	!	!	!	!	!	!	!	!	!	!	!	!	!	!	!	!	!	!
=19	=19	=19	=19	=19	=19	=19	=19	=19	=19	=19	=19	=19	=19	=19	=19	=19	=19	=19	=19	=19	=19	=19	=19	=19	=19	=19	=19	=19	=19	=19	=19	=19	=19	=19	=19
!	!	!	!	!	!	!LO:DY:b	!	!	!	!	!	!	!	!	!	!	!	!	!	!	!	!	!	!	!	!	!	!	!	!	!	!	!	!	!
2GG/	3	.	2GG/	.	4g\	f	4b/	.	4dd\	.	4G\	sal-	.	4d\	sal-	.	4b\	sal-	.	4dd\	sal-	.	1ryy	1ryy	1ryy	1r	.	1r	.	1ryy	1ryy	4bb\	.	4ddd\	.
.	.	.	.	.	4B\	.	8g/L	.	4cc\	.	4G\	-vi	.	4d\	-vi	.	4b\	-vi	.	4dd\	-vi	.	.	.	.	.	.	.	.	.	.	8gg\L	.	4ddd\	.
.	.	.	.	.	.	.	8f#/J	.	.	.	.	.	.	.	.	.	.	.	.	.	.	.	.	.	.	.	.	.	.	.	.	8ff#\J	.	.	.
2C/	6 3	.	2C/	.	4A\	.	8e/L	.	(8cc\L	.	4C\	fac-	.	4e\	fac-	.	4a\	fac-	.	4cc\	fac-	.	.	.	.	.	.	.	.	.	.	8ee\L	.	8ccc\L	.
.	.	.	.	.	.	.	8d/	.	8b\	.	.	.	.	.	.	.	.	.	.	.	.	.	.	.	.	.	.	.	.	.	.	8dd\	.	8bb\	.
.	.	.	.	.	4A\	.	8e/	.	8cc\	.	4C\	-ti	.	4e\	-ti	.	4a\	-ti	.	4cc\	-ta	.	.	.	.	.	.	.	.	.	.	8ee\	.	8ccc\	.
.	.	.	.	.	.	.	8c/J	.	8a\J)	.	.	.	.	.	.	.	.	.	.	.	.	.	.	.	.	.	.	.	.	.	.	8cc\J	.	8aa\J	.
!	!	!	!	!	!	!	!	!	!	!	!LO:LB:g=original	!	!	!	!	!	!	!	!	!	!	!	!	!	!	!	!	!	!	!	!	!	!	!	!
!	!	!	!	!	!	!	!	!	!	!	!	!	!	!	!	!	!	!	!	!	!	!	!	!	!	!	!	!	!	!	!	!	!	!	!
=20	=20	=20	=20	=20	=20	=20	=20	=20	=20	=20	=20	=20	=20	=20	=20	=20	=20	=20	=20	=20	=20	=20	=20	=20	=20	=20	=20	=20	=20	=20	=20	=20	=20	=20	=20
2D\	4	.	2D\	.	4d\	.	4B/	.	4g/	.	4D\	sunt	.	4d\	sunt	.	4g\	sunt	.	4b\	sunt	.	1ryy	1ryy	1ryy	4B/	.	4g\	.	1ryy	1ryy	4b\	.	4gg\	.
.	.	.	.	.	4d\	.	4B/	.	4g/	.	4D\	et	.	4d\	et	.	4g\	et	.	4b\	et	.	.	.	.	4B/	.	4g\	.	.	.	4b\	.	4gg\	.
2DD/	3:2 1_	.	4D\	.	2d^\	.	4d/	.	4b/	.	2D\	di-	.	2c\	di-	.	2f#\	di-	.	2a\	di-	.	.	.	.	4g\	.	4b\	.	.	.	4dd\	.	4bb\	.
.	.	.	4D\	.	.	.	4c/	.	4a/	.	.	.	.	.	.	.	.	.	.	.	.	.	.	.	.	4d/	.	4a\	.	.	.	4cc\	.	4aa\	.
!	!	!	!	!	!LO:LB:g=original	!	!	!	!	!	!	!	!	!	!	!	!	!LO:LB:g=original	!	!LO:LB:g=original	!	!	!	!	!	!	!	!	!	!	!	!	!	!	!
!	!	!	!	!	!	!	!	!	!	!	!	!	!	!	!	!	!	!	!	!	!	!	!	!	!	!	!	!	!	!	!	!	!	!LO:LB:g=original	!
=21	=21	=21	=21	=21	=21	=21	=21	=21	=21	=21	=21	=21	=21	=21	=21	=21	=21	=21	=21	=21	=21	=21	=21	=21	=21	=21	=21	=21	=21	=21	=21	=21	=21	=21	=21
!	!	!	!	!	!	!	!LO:TX:a:t=Dol	!	!	!	!	!	!	!	!	!	!	!	!	!	!	!	!	!	!	!	!	!	!	!	!	!	!	!	!
4GG/	3	.	4GG/	.	4d\	.	4B/	.	4g/	.	4G\	-cent	.	4B\	-cent	.	4g\	-cent	.	4b\	-cent	.	1ryy	1ryy	1ryy	4B/	.	4g\	.	1ryy	1ryy	4b\	.	4gg\	.
4r	.	.	4r	.	4r	.	(8gg\L	.	(8bb\L	.	4r	.	.	4r	.	.	4r	.	.	4r	.	.	.	.	.	4r	.	4r	.	.	.	4r	.	4r	.
.	.	.	.	.	.	.	8ff#\J	.	8aa\J	.	.	.	.	.	.	.	.	.	.	.	.	.	.	.	.	.	.	.	.	.	.	.	.	.	.
2r	.	.	2r	.	2r	.	8ee\L	.	8gg\L	.	2r	.	.	2r	.	.	2r	.	.	2r	.	.	.	.	.	2r	.	2r	.	.	.	2r	.	2r	.
.	.	.	.	.	.	.	8dd\	.	8ff#\	.	.	.	.	.	.	.	.	.	.	.	.	.	.	.	.	.	.	.	.	.	.	.	.	.	.
.	.	.	.	.	.	.	8cc\	.	8ee\	.	.	.	.	.	.	.	.	.	.	.	.	.	.	.	.	.	.	.	.	.	.	.	.	.	.
.	.	.	.	.	.	.	8b\J)	.	8dd\J)	.	.	.	.	.	.	.	.	.	.	.	.	.	.	.	.	.	.	.	.	.	.	.	.	.	.
=22	=22	=22	=22	=22	=22	=22	=22	=22	=22	=22	=22	=22	=22	=22	=22	=22	=22	=22	=22	=22	=22	=22	=22	=22	=22	=22	=22	=22	=22	=22	=22	=22	=22	=22	=22
!LO:TX:a:t=1	!	!	!LO:TX:a:t=1	!	!	!	!	!	!	!	!LO:TX:a:t=1	!	!	!LO:TX:a:t=1	!	!	!LO:TX:a:t=1	!	!	!	!	!	!	!	!	!	!	!	!	!	!	!LO:TX:a:t=1	!	!LO:TX:a:t=1	!
1r	.	.	1r	.	1ryy	.	(8a#X/L	.	(8cc#X\L	.	1r	.	.	1r	.	.	1r	.	.	1r	.	.	1ryy	1ryy	1ryy	1r	.	1r	.	1ryy	1ryy	1r	.	1r	.
.	.	.	.	.	.	.	8b/	.	8dd\	.	.	.	.	.	.	.	.	.	.	.	.	.	.	.	.	.	.	.	.	.	.	.	.	.	.
.	.	.	.	.	.	.	8cc/	.	8ee\	.	.	.	.	.	.	.	.	.	.	.	.	.	.	.	.	.	.	.	.	.	.	.	.	.	.
.	.	.	.	.	.	.	8b/J	.	8dd\J	.	.	.	.	.	.	.	.	.	.	.	.	.	.	.	.	.	.	.	.	.	.	.	.	.	.
.	.	.	.	.	.	.	8an/L	.	8ccn\L	.	.	.	.	.	.	.	.	.	.	.	.	.	.	.	.	.	.	.	.	.	.	.	.	.	.
.	.	.	.	.	.	.	8g/	.	8b\	.	.	.	.	.	.	.	.	.	.	.	.	.	.	.	.	.	.	.	.	.	.	.	.	.	.
.	.	.	.	.	.	.	8f#/	.	8a\	.	.	.	.	.	.	.	.	.	.	.	.	.	.	.	.	.	.	.	.	.	.	.	.	.	.
.	.	.	.	.	.	.	8g/J)	.	8b\J)	.	.	.	.	.	.	.	.	.	.	.	.	.	.	.	.	.	.	.	.	.	.	.	.	.	.
!	!	!	!	!	!	!	!	!	!LO:LB:g=original	!	!	!	!	!	!	!	!	!	!	!	!	!	!	!	!	!	!	!	!	!	!	!	!	!	!
=23	=23	=23	=23	=23	=23	=23	=23	=23	=23	=23	=23	=23	=23	=23	=23	=23	=23	=23	=23	=23	=23	=23	=23	=23	=23	=23	=23	=23	=23	=23	=23	=23	=23	=23	=23
!	!	!	!	!	!	!	!	!	!	!	!LO:TX:a:t=dol	!	!	!	!	!	!	!	!	!	!	!	!	!	!	!	!	!	!	!	!	!LO:TX:a:t=dol	!	!	!
4D\	5_ 3_	.	4D\	.	4d\	.	2f#/	.	2a\	.	4d\	Al-	.	2d\	Al-	.	2f#\	Al-	.	2a\	al-	.	1ryy	1ryy	1ryy	2d^/	.	2a^\	.	1ryy	1ryy	2ff#\	.	(2aa\	.
4C\	.	.	4C\	.	4c\	.	.	.	.	.	4c\	.	.	.	.	.	.	.	.	.	.	.	.	.	.	.	.	.	.	.	.	.	.	.	.
4BB\	8 6	.	4BB\	.	4B\	.	4g/	.	4b\	.	4B\	-le-	.	4d\	-le-	.	4g\	-le-	.	4b\	-le-	.	.	.	.	2r	.	2r	.	.	.	4gg\	.	4bb\	.
4AA\	10 8	.	4AA\	.	4A\	.	4a/	.	4cc\	.	4A\	-lu-	.	4d\	-lu-	.	4a\	-lu-	.	4cc\	-lu-	.	.	.	.	.	.	.	.	.	.	4aa\	.	4ccc\)	.
!	!	!	!LO:LB:g=original	!	!	!	!LO:LB:g=original	!	!	!	!	!	!	!	!	!	!	!	!	!	!	!	!	!	!	!	!	!	!	!	!	!	!	!	!
=24	=24	=24	=24	=24	=24	=24	=24	=24	=24	=24	=24	=24	=24	=24	=24	=24	=24	=24	=24	=24	=24	=24	=24	=24	=24	=24	=24	=24	=24	=24	=24	=24	=24	=24	=24
!	!	!	!	!	!	!	!	!	!	!	!	!	!	!	!	!	!	!	!	!	!	!	!	!	!	!	!	!LO:TX:a:t=1	!	!	!	!	!	!	!
2GG/	8 3	.	2GG/	.	2G/	.	2b\	.	(2dd\	.	2G\	-ja	.	2d\	-ja	.	2b\	-ja	.	2dd\	-ja	.	1ryy	1ryy	1ryy	1r	.	1r	.	1ryy	1ryy	2bb\	.	(2ddd\	.
*	*	*	*	*	*	*	*	*	*	*	*	*	*	*	*ij	*	*	*ij	*	*	*ij	*	*	*	*	*	*	*	*	*	*	*	*	*	*
2C/	6 3	.	2C/	.	2e\	.	4a\	.	4cc\)	.	2C\	Al-	.	2e\	Al-	.	2a\	Al-	.	2cc\	a-	.	.	.	.	.	.	.	.	.	.	4aa\	.	4ccc\	.
.	.	.	.	.	.	.	4c/	.	4a\	.	.	.	.	.	.	.	.	.	.	.	.	.	.	.	.	.	.	.	.	.	.	4ccc\	.	4aa\)	.
=25	=25	=25	=25	=25	=25	=25	=25	=25	=25	=25	=25	=25	=25	=25	=25	=25	=25	=25	=25	=25	=25	=25	=25	=25	=25	=25	=25	=25	=25	=25	=25	=25	=25	=25	=25
2D\	6 4	.	2D\	.	1d	.	2B/	.	2g/	.	2D\	-le-	.	2d\	-le-	.	2g\	-le-	.	2b\	-lle-	.	1ryy	1ryy	1ryy	2g\	.	2b\	.	1ryy	1ryy	2bb\	.	2gg\	.
2DD/	5 3	.	2D\	.	.	.	2A/	.	2f#/	.	2D\	-lu-	.	2d\	-lu-	.	2f#\	-lu-	.	2a\	-lu-	.	.	.	.	2d/	.	2a\	.	.	.	2aa\	.	2ff#\	.
!LO:LB:g=original	!	!	!	!	!	!	!	!	!	!	!	!	!	!	!	!	!	!	!	!	!	!	!	!	!	!	!	!LO:LB:g=original	!	!	!	!	!	!	!
=26	=26	=26	=26	=26	=26	=26	=26	=26	=26	=26	=26	=26	=26	=26	=26	=26	=26	=26	=26	=26	=26	=26	=26	=26	=26	=26	=26	=26	=26	=26	=26	=26	=26	=26	=26
4GG/	.	.	4GG/	.	4d\	.	4B/	.	4g/	.	4G\	-ja	.	4d\	-ja	.	4g\	-ja	.	4b\	-ja	.	1ryy	1ryy	1ryy	4B/	.	4b\	.	1ryy	1ryy	4bb\	.	4gg\	.
*	*	*	*	*	*	*	*	*	*	*	*	*	*	*	*Xij	*	*	*	*	*	*	*	*	*	*	*	*	*	*	*	*	*	*	*	*
4r	.	.	4r	.	4r	.	8gg\L	.	8bb\L	.	4r	.	.	4r	.	.	4r	.	.	4r	.	.	.	.	.	4r	.	4r	.	.	.	4r	.	4r	.
.	.	.	.	.	.	.	(8ff#\J	.	8aa\J	.	.	.	.	.	.	.	.	.	.	.	.	.	.	.	.	.	.	.	.	.	.	.	.	.	.
2r	.	.	2r	.	2r	.	8ee\L	.	(8gg\L	.	2r	.	.	2r	.	.	2r	.	.	2r	.	.	.	.	.	2r	.	2r	.	.	.	2r	.	2r	.
.	.	.	.	.	.	.	8dd\	.	8ff#\	.	.	.	.	.	.	.	.	.	.	.	.	.	.	.	.	.	.	.	.	.	.	.	.	.	.
.	.	.	.	.	.	.	8cc\	.	8ee\	.	.	.	.	.	.	.	.	.	.	.	.	.	.	.	.	.	.	.	.	.	.	.	.	.	.
.	.	.	.	.	.	.	8b\J)	.	8dd\J)	.	.	.	.	.	.	.	.	.	.	.	.	.	.	.	.	.	.	.	.	.	.	.	.	.	.
!	!	!	!	!	!	!	!	!	!	!	!	!	!	!	!	!	!	!	!	!	!	!	!	!	!	!LO:LB:g=original	!	!	!	!	!	!	!	!	!
=27	=27	=27	=27	=27	=27	=27	=27	=27	=27	=27	=27	=27	=27	=27	=27	=27	=27	=27	=27	=27	=27	=27	=27	=27	=27	=27	=27	=27	=27	=27	=27	=27	=27	=27	=27
!LO:TX:a:t=1	!	!	!LO:TX:a:t=1	!	!	!	!	!	!	!	!	!	!	!	!	!	!	!	!	!LO:TX:a:t=1	!	!	!	!	!	!LO:TX:a:t=1	!	!LO:TX:a:t=1	!	!	!	!LO:TX:a:t=1	!	!	!
1r	.	.	1r	.	1r	.	(8a#X\L	.	(8cc#X\L	.	1r	.	.	1r	.	.	1r	.	.	1r	.	.	1ryy	1ryy	1ryy	1r	.	1r	.	1ryy	1ryy	1r	.	1r	.
.	.	.	.	.	.	.	8b\	.	8dd\	.	.	.	.	.	.	.	.	.	.	.	.	.	.	.	.	.	.	.	.	.	.	.	.	.	.
.	.	.	.	.	.	.	8cc\	.	8ee\	.	.	.	.	.	.	.	.	.	.	.	.	.	.	.	.	.	.	.	.	.	.	.	.	.	.
.	.	.	.	.	.	.	8b\J	.	8dd\J	.	.	.	.	.	.	.	.	.	.	.	.	.	.	.	.	.	.	.	.	.	.	.	.	.	.
.	.	.	.	.	.	.	8an\L	.	8ccn\L	.	.	.	.	.	.	.	.	.	.	.	.	.	.	.	.	.	.	.	.	.	.	.	.	.	.
.	.	.	.	.	.	.	8g\	.	8b\	.	.	.	.	.	.	.	.	.	.	.	.	.	.	.	.	.	.	.	.	.	.	.	.	.	.
.	.	.	.	.	.	.	8f#\)	.	8a\)	.	.	.	.	.	.	.	.	.	.	.	.	.	.	.	.	.	.	.	.	.	.	.	.	.	.
.	.	.	.	.	.	.	8g\J	.	8b\J	.	.	.	.	.	.	.	.	.	.	.	.	.	.	.	.	.	.	.	.	.	.	.	.	.	.
=28	=28	=28	=28	=28	=28	=28	=28	=28	=28	=28	=28	=28	=28	=28||:	=28	=28	=28	=28	=28	=28	=28	=28	=28	=28	=28	=28	=28	=28	=28	=28	=28	=28	=28	=28	=28
!	!	!	!	!	!	!	!	!	!	!	!	!	!	!	!	!	!	!	!	!	!	!	!	!	!	!	!	!	!	!	!	!	!	!	!
4D\	5_ 3_	.	4D\	.	4d\	.	2f#/	.	2a\	.	(4D\	Al-	.	2d\	Al-	.	2f#\	Al-	.	2a\	al-	.	1ryy	1ryy	1ryy	2d/	.	2a^\	.	1ryy	1ryy	2ff#\	.	2aa\	.
4c\	.	.	4c\	.	4c\	.	.	.	.	.	4c\)	.	.	.	.	.	.	.	.	.	.	.	.	.	.	.	.	.	.	.	.	.	.	.	.
4B\	8 6	.	4B\	.	4B\	.	4g/	.	4b\	.	4B\	-le-	.	(4d\	-le-	.	4g\	-le-	.	4b\	-le-	.	.	.	.	2r	.	2r	.	.	.	4gg\	.	4bb\	.
4A\	8	.	4A\	.	4A\	.	4a/	.	4cc\	.	4A\	-lu-	.	4d\)	-lu-	.	4a\	-lu-	.	4cc\	-lu-	.	.	.	.	.	.	.	.	.	.	4aa\	.	4ccc\	.
!	!	!	!	!	!	!	!	!	!	!	!LO:LB:g=original	!	!	!	!	!	!	!	!	!	!	!	!	!	!	!	!	!	!	!	!	!	!	!	!
=29	=29	=29	=29	=29	=29	=29	=29	=29	=29	=29	=29	=29	=29	=29:||	=29	=29	=29	=29	=29	=29	=29	=29	=29	=29	=29	=29	=29	=29	=29	=29	=29	=29	=29	=29	=29
!	!	!	!	!	!	!LO:DY:a	!	!LO:DY:a	!	!	!	!	!	!	!	!	!	!	!	!	!	!	!	!	!	!	!LO:DY:a	!	!LO:DY:a	!	!	!	!LO:DY:a	!	!
!	!	!	!	!	!	!	!	!LO:HP:t=cre	!	!	!	!	!	!	!	!	!	!	!	!	!	!	!	!	!	!	!	!	!	!	!	!	!	!	!
!	!	!	!	!	!	!LO:HP:t=cres	!	!	!	!	!	!	!	!	!	!	!	!	!	!	!	!	!	!	!	!	!	!	!	!	!	!	!	!	!
!	!	!	!	!	!	!	!	!	!	!	!	!	!	!	!	!	!	!	!	!	!	!	!	!	!	!	!	!	!	!	!	!	!LO:HP:a	!	!
!	!	!	!	!	!	!	!	!	!	!	!	!	!	!	!	!	!	!	!	!	!	!	!	!	!	!	!	!	!LO:HP:a	!	!	!	!	!	!
!	!	!	!	!	!	!	!	!	!	!	!	!	!	!	!	!	!	!	!	!	!	!	!	!	!	!	!LO:HP:a	!	!	!	!	!	!	!	!
4G\	5_ 3_	.	4G\	.	4G/	<	4b\	<	4dd\	<	2G\	-ja	.	2d\yy	-ja	.	2b\	-ja	.	2dd\	-ja	.	1ryy	1ryy	1ryy	4g\	<	4b\	<	1ryy	1ryy	4bb\	<	4ddd\	.
8G\L	.	.	8G\L	.	8g\L	.	8b\L	.	8dd\L	.	.	.	.	.	.	.	.	.	.	.	.	.	.	.	.	8g\L	.	8b\L	.	.	.	8bb\L	.	8ddd\L	.
8G\J	.	.	8G\J	.	8g\J	.	8b\J	.	8dd\J	.	.	.	.	.	.	.	.	.	.	.	.	.	.	.	.	8g\J	.	8b\J	.	.	.	8bb\J	.	8ddd\J	.
4G\	.	.	4G\	.	4g\	.	4b\	.	4dd\	[	2G\	Al-	.	(y4d\yy	al-	.	2b\	Al-	.	2dd\	al-	.	.	.	.	4g\	[	4b\	.	.	.	4bb\	.	4ddd\	.
4G\	.	.	4G\	.	4g\	.	4b\	.	4dd\	.	.	.	.	4d\)yy	-}	.	.	.	.	.	.	.	.	.	.	4g\	.	4b\	[[	.	.	4bb\	[[	4ddd\	.
!	!	!	!	!	!	!	!	!	!LO:LB:g=original	!	!	!	!	!LO:LB:g=original	!	!	!	!	!	!	!	!	!	!	!	!	!	!	!	!	!	!	!	!	!
!	!	!	!	!	!	!	!	!	!	!	!	!	!	!	!	!	!	!	!	!	!	!	!	!	!	!	!	!	!	!	!	!	!	!LO:LB:g=original	!
=30	=30	=30	=30	=30	=30	=30	=30	=30	=30	=30	=30	=30	=30	=30	=30	=30	=30	=30	=30	=30	=30	=30	=30	=30	=30	=30	=30	=30	=30	=30	=30	=30	=30	=30	=30
!	!	!	!	!	!	!LO:DY:a	!	!	!	!	!	!	!LO:HP:a:t=cr	!	!	!	!	!	!	!	!	!	!	!	!	!	!LO:DY:a	!	!LO:DY:a	!	!	!	!LO:DY:a	!	!
!	!	!	!	!	!	!	!	!	!	!	!	!	!	!	!	!	!	!	!	!	!	!	!	!	!	!	!	!	!	!	!	!	!	!	!
!	!	!	!	!	!	!	!	!	!	!LO:HP:b:t=cr	!	!	!	!	!	!	!	!	!	!	!	!	!	!	!	!	!	!	!	!	!	!	!	!	!
!	!	!	!	!	!	!	!	!	!	!	!	!	!	!	!	!	!	!	!	!	!	!	!	!	!	!	!	!	!	!	!	!	!LO:HP:a:t=cres	!	!
!	!	!	!	!	!	!	!	!	!	!	!	!	!	!	!	!	!	!	!	!	!	!	!	!	!	!	!	!	!LO:HP:a:t=cr	!	!	!	!	!	!
!	!	!	!	!	!	!	!	!	!	!	!	!	!	!	!	!	!	!	!	!	!	!	!	!	!	!	!LO:HP:a:t=cres	!	!	!	!	!	!	!	!
4F#\	#6_ 3_	.	4F#\	.	4b\	<	4f#X/ 4a	.	4dd#X\	<	2F#\	-le-	<	2B\	le-	.	2a\	-le-	.	2dd#X\	-le-	.	1ryy	1ryy	1ryy	4B/	<	4b\	<	1ryy	1ryy	4aa\	<	4ddd#X\	.
8F#\L	.	.	8F#\L	.	8b\L	.	8f#/L 8a	.	8dd#\L	.	.	.	.	.	.	.	.	.	.	.	.	.	.	.	.	8B/L	.	8b\L	.	.	.	8aa\L	.	8dddn\L	.
8F#\J	.	.	8F#\J	.	8b\J	.	8f#/J 8a	.	8dd#\J	.	.	.	.	.	.	.	.	.	.	.	.	.	.	.	.	8B/J	.	8b\J	.	.	.	8aa\J	.	8ddd\J	.
4F#\	.	.	4F#\	.	4b\	.	4f#/ 4a	.	4dd#\	.	2F#\	-lu-	.	2B\	-lu-	.	2a\	-lu-	.	2dd#\	-lu-	.	.	.	.	4B/	.	4b\	.	.	.	4aa\	.	4ddd\	.
4F#\	.	.	4F#\	.	4b\	[[	4f#/ 4a	.	4dd#\	.	.	.	.	.	.	.	.	.	.	.	.	.	.	.	.	4B/	.	4b\	.	.	.	4aa\	.	4ddd\	.
!	!	!	!LO:LB:g=original	!	!LO:LB:g=original	!	!	!	!	!	!	!	!	!	!	!	!	!	!	!	!	!	!	!	!	!	!	!	!	!	!	!	!	!	!
!	!	!	!	!	!	!	!	!	!	!	!	!	!	!	!	!	!	!	!	!	!	!	!	!	!	!	!	!	!	!	!	!LO:LB:g=original	!	!	!
=31	=31	=31	=31	=31	=31	=31	=31	=31	=31	=31	=31	=31	=31	=31	=31	=31	=31	=31	=31	=31	=31	=31	=31	=31	=31	=31	=31	=31	=31	=31	=31	=31	=31	=31	=31
*	*	*	*	*	*tremolo	*	*	*	*	*	*	*	*	*	*	*	*	*	*	*	*	*	*	*	*	*	*	*	*	*	*	*	*	*	*
!	!	!	!	!	!	!	!	!	!	!	!	!	!	!	!	!	!	!	!	!	!	!LO:DY:b	!	!	!	!	!	!	!	!	!	!	!	!	!
!	!	!	!	!	!	!	!	!	!	!	!	!	!LO:DY:b	!	!	!	!	!	!	!	!	!	!	!	!	!	!	!	!	!	!	!	!	!	!
!	!	!	!	!	!	!	!	!	!	!LO:DY:b	!	!	!	!	!	!	!	!	!	!	!	!	!	!	!	!	!	!	!	!	!	!	!	!	!
!	!	!	!	!	!	!	!	!LO:DY:b	!	!	!	!	!	!	!	!	!	!	!	!	!	!	!	!	!	!	!	!	!	!	!	!	!	!	!
!	!	!LO:DY:b	!	!LO:DY:b	!	!	!	!	!	!	!	!	!	!	!	!	!	!	!	!	!	!	!	!	!	!	!	!	!LO:DY:t=fo	!	!	!	!	!	!
8E\L	8_ 6_	f	8E\L	f	8b\L	.	8g/L	f	8ee\L	f	4E\	-ja	rfz	4B\	-ja	.	4g\	-ja	.	4ee\	-ja	f	1ryy	1ryy	1ryy	2B/	f	2b\	f	1ryy	1ryy	4gg\	.	4eee\	f
8E\	.	.	8E\	.	8b\	.	8g/	.	8ee\	.	.	.	.	.	.	.	.	.	.	.	.	.	.	.	.	.	.	.	.	.	.	.	.	.	.
*	*	*	*	*	*	*	*	*	*	*	*	*	*	*	*ij	*	*	*	*	*	*Xij	*	*	*	*	*	*	*	*	*	*	*	*	*	*
8G#X\	5_ 3_	.	8G#X\	.	8b\	.	8b/	.	8dd\	.	4G\	Al-	.	4B\	al-	.	4g#X\	Al-	.	4ddn\	al-	.	.	.	.	.	.	.	.	.	.	4gg#X\	.	4ddd\	.
8G#\J	.	.	8G#\J	.	8b\J	.	8b/J	.	8dd\J	.	.	.	.	.	.	.	.	.	.	.	.	.	.	.	.	.	.	.	.	.	.	.	.	.	.
8A\L	3_ 1_	.	8A\L	.	8a\L	.	8a/L	.	8cc\L	.	(4A\	-le-	.	2e\	-le-	.	2a\	-le-	.	2cc\	-le-	.	.	.	.	4r	.	4r	.	.	.	4aa\	.	4ccc\	.
8A\	.	.	8A\	.	8a\	.	8a/	.	8cc\	.	.	.	.	.	.	.	.	.	.	.	.	.	.	.	.	.	.	.	.	.	.	.	.	.	.
8Gn\	6 4	.	8Gn\	.	8a\	.	8cc/	.	8ee\	.	4Gn\)	.	.	.	.	.	.	.	.	.	.	.	.	.	.	4d/	.	4g\	.	.	.	4ggn\	.	4eee\	.
8G\J	.	.	8G\J	.	8a\J	.	8cc/J	.	8ee\J	.	.	.	.	.	.	.	.	.	.	.	.	.	.	.	.	.	.	.	.	.	.	.	.	.	.
!LO:LB:g=original	!	!	!	!	!	!	!	!	!	!	!	!	!	!	!	!	!LO:LB:g=original	!	!	!LO:LB:g=original	!	!	!	!	!	!	!	!	!	!	!	!	!	!	!
=32	=32	=32	=32	=32	=32	=32	=32	=32	=32	=32	=32	=32	=32	=32	=32	=32	=32	=32	=32	=32	=32	=32	=32	=32	=32	=32	=32	=32	=32	=32	=32	=32	=32	=32	=32
8F#\L	6 3_	.	8F#\L	.	8a\L	.	8b/L	.	8dd\L	.	(4F#\	-lu-	.	2A\	-lu-	.	2f#\	-lu-	.	(4dd\	-lu-	.	1ryy	1ryy	1ryy	4g\	.	4b\	.	1ryy	1ryy	4ff#\	.	4ddd\	.
8F#\	5	.	8F#\	.	8a\	.	8b/	.	8dd\	.	.	.	.	.	.	.	.	.	.	.	.	.	.	.	.	.	.	.	.	.	.	.	.	.	.
8D\	6_ 4_	.	8D\	.	8a\	.	8a/	.	8cc\	.	4D\)	.	.	.	.	.	.	.	.	4cc\)	.	.	.	.	.	4d/	.	4a\	.	.	.	4aa\	.	4ccc\	.
8D\J	.	.	8D\J	.	8a\J	.	8a/J	.	8cc\J	.	.	.	.	.	.	.	.	.	.	.	.	.	.	.	.	.	.	.	.	.	.	.	.	.	.
8G\L	8_ 1_	.	8G\L	.	8g\L	.	8g/L	.	8b\L	.	2A\	-ja	.	2d\	-ja	.	2gn\	-ja	.	2b\	-ja	.	.	.	.	4B/	.	4g\	.	.	.	2gg\	.	2bb\	.
8G\	.	.	8G\	.	8g\	.	8g/	.	8b\	.	.	.	.	.	.	.	.	.	.	.	.	.	.	.	.	.	.	.	.	.	.	.	.	.	.
8F#\	.	.	8F#\	.	8g\	.	8b/	.	8gg\	.	.	.	.	.	.	.	.	.	.	.	.	.	.	.	.	4r	.	4r	.	.	.	.	.	.	.
8F#\J	.	.	8F#\J	.	8g\J	.	8b/J	.	8gg\J	.	.	.	.	.	.	.	.	.	.	.	.	.	.	.	.	.	.	.	.	.	.	.	.	.	.
=33	=33	=33	=33	=33	=33	=33	=33	=33	=33	=33	=33	=33	=33	=33	=33	=33	=33	=33	=33	=33	=33	=33	=33	=33	=33	=33	=33	=33	=33	=33	=33	=33	=33	=33	=33
*	*	*	*	*	*	*	*tremolo	*	*	*	*	*ij	*	*	*	*	*	*	*	*	*ij	*	*	*	*	*	*	*	*	*	*	*	*	*	*
4E\	6_ 3_	.	4E\	.	8g\L	.	8ee\L	.	8cc\L	.	2c\	AL-	.	2e\	al-	.	2g\	Al-	.	2cc\	al-	.	1ryy	1ryy	1ryy	2G^/	.	2g^\	.	1ryy	1ryy	2gg\	.	2ccc\	.
.	.	.	.	.	8g\	.	8ee\	.	8cc\	.	.	.	.	.	.	.	.	.	.	.	.	.	.	.	.	.	.	.	.	.	.	.	.	.	.
4E\	.	.	4E\	.	8g\	.	8ee\	.	8gg\	.	.	.	.	.	.	.	.	.	.	.	.	.	.	.	.	.	.	.	.	.	.	.	.	.	.
.	.	.	.	.	8g\J	.	8ee\J	.	8gg\J	.	.	.	.	.	.	.	.	.	.	.	.	.	.	.	.	.	.	.	.	.	.	.	.	.	.
4D\	6_ 4_	.	4D\	.	8g\L	.	8dd\L	.	8b\L	.	2B\	-le-	.	2d\	-le-	.	2g\	-le-	.	2b\	-le-	.	.	.	.	2G^/	.	2g^\	.	.	.	2gg\	.	2bb\	.
.	.	.	.	.	8g\	.	8dd\	.	8b\	.	.	.	.	.	.	.	.	.	.	.	.	.	.	.	.	.	.	.	.	.	.	.	.	.	.
4D\	.	.	4D\	.	8g\	.	8dd\	.	8gg\	.	.	.	.	.	.	.	.	.	.	.	.	.	.	.	.	.	.	.	.	.	.	.	.	.	.
.	.	.	.	.	8g\J	.	8dd\J	.	8gg\J	.	.	.	.	.	.	.	.	.	.	.	.	.	.	.	.	.	.	.	.	.	.	.	.	.	.
!	!	!	!	!	!	!	!	!	!LO:LB:g=original	!	!	!	!	!	!	!	!	!	!	!	!	!	!	!	!	!	!	!	!	!	!	!	!	!	!
=34	=34	=34	=34	=34	=34	=34	=34	=34	=34	=34	=34	=34	=34	=34	=34	=34	=34	=34	=34	=34	=34	=34	=34	=34	=34	=34	=34	=34	=34	=34	=34	=34	=34	=34	=34
4C/	10_ 8_	.	4C\	.	8g\L	.	8cc\L	.	8ee\L	.	2G\	-lu-	.	2c\	-lu-	.	2g\	-lu-	.	2ee\	-lu-	.	1ryy	1ryy	1ryy	2G^/	.	2g^\	.	1ryy	1ryy	2gg\	.	2eee\	.
.	.	.	.	.	8g\	.	8cc\	.	8ee\	.	.	.	.	.	.	.	.	.	.	.	.	.	.	.	.	.	.	.	.	.	.	.	.	.	.
4C/	.	.	4C\	.	8g\	.	8cc\	.	8gg\	.	.	.	.	.	.	.	.	.	.	.	.	.	.	.	.	.	.	.	.	.	.	.	.	.	.
.	.	.	.	.	8g\J	.	8cc\J	.	8gg\J	.	.	.	.	.	.	.	.	.	.	.	.	.	.	.	.	.	.	.	.	.	.	.	.	.	.
4BB/	3_	.	4BB\	.	8g\L	.	8b\L	.	8dd\L	.	2G\	-ja	.	2B\	-ja	.	2g\	-ja	.	2dd\	-ja	.	.	.	.	2G^/	.	2g^\	.	.	.	2gg\	.	2ddd\	.
.	.	.	.	.	8g\	.	8b\	.	8dd\	.	.	.	.	.	.	.	.	.	.	.	.	.	.	.	.	.	.	.	.	.	.	.	.	.	.
4BB/	.	.	4BB\	.	8g\	.	8b\	.	8gg\	.	.	.	.	.	.	.	.	.	.	.	.	.	.	.	.	.	.	.	.	.	.	.	.	.	.
.	.	.	.	.	8g\J	.	8b\J	.	8gg\J	.	.	.	.	.	.	.	.	.	.	.	.	.	.	.	.	.	.	.	.	.	.	.	.	.	.
!	!	!	!	!	!	!	!	!	!	!	!	!	!	!	!	!	!	!	!	!	!	!	!	!	!	!	!	!LO:LB:g=original	!	!	!	!	!	!	!
=35	=35	=35	=35	=35	=35	=35	=35	=35	=35	=35	=35	=35	=35	=35	=35	=35	=35	=35	=35	=35	=35	=35	=35	=35	=35	=35	=35	=35	=35	=35	=35	=35	=35	=35	=35
*	*	*	*	*	*	*	*	*	*tremolo	*	*	*	*	*	*	*	*	*	*	*	*	*	*	*	*	*	*	*	*	*	*	*	*	*	*
4AA/	6_ 4_	.	4AA\	.	8a\L	.	8d/ 8ccL	.	8ff#\L	.	1c	Al-	.	1d	al-	.	1a	Al-	.	1ff#	al-	.	1ryy	1ryy	1ryy	2d/	.	2a\	.	1ryy	1ryy	2aa\	.	2ccc\	.
.	.	.	.	.	8a\	.	8d/ 8cc	.	8ff#\	.	.	.	.	.	.	.	.	.	.	.	.	.	.	.	.	.	.	.	.	.	.	.	.	.	.
4D\	.	.	4D\	.	8a\	.	8d/ 8cc	.	8ff#\	.	.	.	.	.	.	.	.	.	.	.	.	.	.	.	.	.	.	.	.	.	.	.	.	.	.
.	.	.	.	.	8a\J	.	8d/ 8ccJ	.	8ff#\J	.	.	.	.	.	.	.	.	.	.	.	.	.	.	.	.	.	.	.	.	.	.	.	.	.	.
4F#\	.	.	4F#\	.	8a\L	.	8d/ 8ccL	.	8ff#\L	.	.	.	.	.	.	.	.	.	.	.	.	.	.	.	.	4d/	.	4a\	.	.	.	4aa\	.	4ccc\	.
.	.	.	.	.	8a\	.	8d/ 8cc	.	8ff#\	.	.	.	.	.	.	.	.	.	.	.	.	.	.	.	.	.	.	.	.	.	.	.	.	.	.
4A\	.	.	4A\	.	8a\	.	8d/ 8cc	.	8ff#\	.	.	.	.	.	.	.	.	.	.	.	.	.	.	.	.	4d/	.	4a\	.	.	.	4aa\	.	4ccc\	.
.	.	.	.	.	8a\J	.	8d/ 8ccJ	.	8ff#\J	.	.	.	.	.	.	.	.	.	.	.	.	.	.	.	.	.	.	.	.	.	.	.	.	.	.
!	!	!	!LO:LB:g=original	!	!	!	!LO:LB:g=original	!	!	!	!	!	!	!	!	!	!	!	!	!	!	!	!	!	!	!	!	!	!	!	!	!	!	!	!
=36	=36	=36	=36	=36	=36	=36	=36	=36	=36	=36	=36	=36	=36	=36	=36	=36	=36	=36	=36	=36	=36	=36	=36	=36	=36	=36	=36	=36	=36	=36	=36	=36	=36	=36	=36
2c\	.	.	2c\	.	8a\L	.	8d/ 8ccL	.	8ff#\L	.	2c\	-le-	.	2d\	-le-	.	2a\	-le-	.	2ff#\	-le-	.	1ryy	1ryy	1ryy	2d/	.	2a\	.	1ryy	1ryy	2gg\	.	2ccc\	.
.	.	.	.	.	8a\	.	8d/ 8cc	.	8ff#\	.	.	.	.	.	.	.	.	.	.	.	.	.	.	.	.	.	.	.	.	.	.	.	.	.	.
.	.	.	.	.	8a\	.	8d/ 8cc	.	8ff#\	.	.	.	.	.	.	.	.	.	.	.	.	.	.	.	.	.	.	.	.	.	.	.	.	.	.
.	.	.	.	.	8a\J	.	8d/ 8ccJ	.	8ff#\J	.	.	.	.	.	.	.	.	.	.	.	.	.	.	.	.	.	.	.	.	.	.	.	.	.	.
4B\	.	.	4B\	.	8a\L	.	8d/ 8ccL	.	8ff#\L	.	2c\	-lu-	.	2d\	-lu-	.	2a\	-lu-	.	2ff#\	-lu-	.	.	.	.	2d/	.	2a\	.	.	.	2ee\	.	2ccc\	.
.	.	.	.	.	8a\	.	8d/ 8cc	.	8ff#\	.	.	.	.	.	.	.	.	.	.	.	.	.	.	.	.	.	.	.	.	.	.	.	.	.	.
4A\	.	.	4A\	.	8a\	.	8d/ 8cc	.	8ff#\	.	.	.	.	.	.	.	.	.	.	.	.	.	.	.	.	.	.	.	.	.	.	.	.	.	.
.	.	.	.	.	8a\J	.	8d/ 8ccJ	.	8ff#\J	.	.	.	.	.	.	.	.	.	.	.	.	.	.	.	.	.	.	.	.	.	.	.	.	.	.
!	!	!	!	!	!	!	!	!	!	!	!	!	!	!	!	!	!	!	!	!	!	!	!	!	!	!	!	!	!	!	!	!	!	!LO:LB:g=original	!
!	!	!	!	!	!	!	!	!	!	!	!	!	!	!	!	!	!	!	!	!	!	!	!	!	!	!LO:LB:g=original	!	!	!	!	!	!	!	!	!
=37	=37	=37	=37	=37	=37	=37	=37	=37	=37	=37	=37	=37	=37	=37	=37	=37	=37	=37	=37	=37	=37	=37	=37	=37	=37	=37	=37	=37	=37	=37	=37	=37	=37	=37	=37
*	*	*	*	*	*	*	*	*	*Xtremolo	*	*	*	*	*	*	*	*	*	*	*	*	*	*	*	*	*	*	*	*	*	*	*	*	*	*
4G\	3_	.	4G\	.	8g\L	.	8b\L	.	8gg\L	.	2B\	-ja	.	2d\	-ja	.	2b\	-ja	.	2gg\	-ja	.	1ryy	1ryy	1ryy	2g\	.	2b\	.	1ryy	1ryy	2dd\	.	2bb\	.
*	*	*	*	*	*	*	*	*	*	*	*	*	*	*	*	*	*	*	*	*	*Xij	*	*	*	*	*	*	*	*	*	*	*	*	*	*
.	.	.	.	.	8g\	.	8b\	.	8gg\	.	.	.	.	.	.	.	.	.	.	.	.	.	.	.	.	.	.	.	.	.	.	.	.	.	.
4B\	.	.	4B\	.	8g\	.	8b\	.	8dd\	.	.	.	.	.	.	.	.	.	.	.	.	.	.	.	.	.	.	.	.	.	.	.	.	.	.
.	.	.	.	.	8g\J	.	8b\J	.	8dd\J	.	.	.	.	.	.	.	.	.	.	.	.	.	.	.	.	.	.	.	.	.	.	.	.	.	.
4c\	3_	.	4c\	.	8e\L	.	8cc\L	.	8ee\L	.	4c\	Al-	.	4c\	al-	.	4g\	Al-	.	4ee\	al-	.	.	.	.	2r	.	2r	.	.	.	2cc\	.	2aa\	.
.	.	.	.	.	8e\	.	8cc\	.	8ee\	.	.	.	.	.	.	.	.	.	.	.	.	.	.	.	.	.	.	.	.	.	.	.	.	.	.
4c\	6	.	4c\	.	8e\	.	8cc\	.	8aa\	.	4c\	-le-	.	4e\	-le-	.	4cc\	-le-	.	4aa\	-le-	.	.	.	.	.	.	.	.	.	.	.	.	.	.
.	.	.	.	.	8e\J	.	8cc\J	.	8aa\J	.	.	.	.	.	.	.	.	.	.	.	.	.	.	.	.	.	.	.	.	.	.	.	.	.	.
*	*	*	*	*	*	*	*	*	*tremolo	*	*	*Xij	*	*	*	*	*	*Xij	*	*	*	*	*	*	*	*	*	*	*	*	*	*	*	*	*
!	!	!	!	!	!	!	!	!	!	!	!LO:LB:g=original	!	!	!	!	!	!	!	!	!	!	!	!	!	!	!	!	!	!	!	!	!	!	!	!
=38	=38	=38	=38	=38	=38	=38	=38	=38	=38	=38	=38	=38	=38	=38	=38	=38	=38	=38	=38	=38	=38	=38	=38	=38	=38	=38	=38	=38	=38	=38	=38	=38	=38	=38	=38
2d\	4	.	2d\	.	8d\L	.	8b\L	.	8gg\L	.	2d\	-lu-	.	1d	-lu-	.	(2b\	-lu-	.	(2aa\	-lu-	.	1ryy	1ryy	1ryy	2g\	.	2b\	.	1ryy	1ryy	4b\	.	2gg\	.
.	.	.	.	.	8d\	.	8b\	.	8gg\	.	.	.	.	.	.	.	.	.	.	.	.	.	.	.	.	.	.	.	.	.	.	.	.	.	.
.	.	.	.	.	8d\	.	8b\	.	8gg\	.	.	.	.	.	.	.	.	.	.	.	.	.	.	.	.	.	.	.	.	.	.	4r	.	.	.
.	.	.	.	.	8d\J	.	8b\J	.	8gg\J	.	.	.	.	.	.	.	.	.	.	.	.	.	.	.	.	.	.	.	.	.	.	.	.	.	.
2D\	3	.	2D\	.	8d\L	.	8a\L	.	8ff#\L	.	2D\	.	.	.	.	.	2a\)	.	.	2ff#\)	.	.	.	.	.	2d/	.	2a\	.	.	.	2r	.	2ff#\	.
.	.	.	.	.	8d\	.	8a\	.	8ff#\	.	.	.	.	.	.	.	.	.	.	.	.	.	.	.	.	.	.	.	.	.	.	.	.	.	.
.	.	.	.	.	8d\	.	8a\	.	8ff#\	.	.	.	.	.	.	.	.	.	.	.	.	.	.	.	.	.	.	.	.	.	.	.	.	.	.
.	.	.	.	.	8d\J	.	8a\J	.	8ff#\J	.	.	.	.	.	.	.	.	.	.	.	.	.	.	.	.	.	.	.	.	.	.	.	.	.	.
!LO:LB:g=original	!	!	!	!	!	!	!	!	!	!	!	!	!	!	!	!	!	!	!	!	!	!	!	!	!	!	!	!	!	!	!	!	!	!	!
=39	=39	=39	=39	=39	=39	=39	=39	=39	=39	=39	=39	=39	=39	=39	=39	=39	=39	=39	=39	=39	=39	=39	=39	=39	=39	=39	=39	=39	=39	=39	=39	=39	=39	=39	=39
!	!	!LO:DY:b	!	!	!	!LO:DY:b	!	!	!	!	!	!	!	!	!	!	!	!	!	!	!	!	!	!	!	!	!	!	!	!	!	!	!	!	!
4G\	.	p	4G\	.	4d\	p	4b\	.	4gg\	.	4G\	-ja	.	4d\	-ja	.	4b\	-ja	.	4gg\	-ja	.	1ryy	1ryy	1ryy	4B/	.	4g\	.	1ryy	1ryy	1gg^	.	4gg\	.
*	*	*	*	*	*	*	*	*	*	*	*	*	*	*	*Xij	*	*	*	*	*	*	*	*	*	*	*	*	*	*	*	*	*	*	*	*
4G\	.	.	4G\	.	4B\ 4d	.	(8gg\L	.	(8bb\L	.	4r	.	.	4r	.	.	4r	.	.	4r	.	.	.	.	.	4r	.	4r	.	.	.	.	.	4r	.
.	.	.	.	.	.	.	8ff#\J)	.	8aa\J)	.	.	.	.	.	.	.	.	.	.	.	.	.	.	.	.	.	.	.	.	.	.	.	.	.	.
4G\	.	.	4G\	.	4B\ 4d	.	(8ff#\L	.	(8aa\L	.	2r	.	.	2r	.	.	2r	.	.	2r	.	.	.	.	.	2r	.	2r	.	.	.	.	.	2r	.
.	.	.	.	.	.	.	8ee\J)	.	8gg\J)	.	.	.	.	.	.	.	.	.	.	.	.	.	.	.	.	.	.	.	.	.	.	.	.	.	.
4G\	.	.	4G\	.	4B\ 4d	.	(8ee\L	.	(8gg\L	.	.	.	.	.	.	.	.	.	.	.	.	.	.	.	.	.	.	.	.	.	.	.	.	.	.
.	.	.	.	.	.	.	8dd\J)	.	8ff#\J)	.	.	.	.	.	.	.	.	.	.	.	.	.	.	.	.	.	.	.	.	.	.	.	.	.	.
!	!	!	!	!	!	!	!	!	!LO:LB:g=original	!	!	!	!	!LO:LB:g=original	!	!	!	!	!	!	!	!	!	!	!	!	!	!	!	!	!	!	!	!	!
=40	=40	=40	=40	=40	=40	=40	=40	=40	=40	=40	=40	=40	=40	=40	=40	=40	=40	=40	=40	=40	=40	=40	=40	=40	=40	=40	=40	=40	=40	=40	=40	=40	=40	=40	=40
!	!	!	!	!	!	!	!	!	!	!	!	!	!	!	!	!	!	!	!	!	!	!LO:DY:b	!	!	!	!	!	!	!	!	!	!	!	!	!
!	!	!	!	!	!	!	!	!	!	!	!	!	!	!	!	!	!	!	!LO:DY:b	!	!	!	!	!	!	!	!	!	!	!	!	!	!	!	!
!	!	!	!	!	!	!	!	!	!	!	!	!	!	!	!	!LO:DY:b	!	!	!	!	!	!	!	!	!	!	!	!	!	!	!	!	!	!	!
*	*	*	*	*	*	*	*Xtremolo	*	*Xtremolo	*	*	*	*	*	*	*	*	*	*	*	*	*	*	*	*	*	*	*	*	*	*	*	*	*	*
4G\	.	.	4G\	.	4B\ 4d	.	(8dd\L	.	(8ff#\L	.	4G\	Con-	p	4d\	Con-	p	4g\	Con-	p	4b\	Con-	p	1ryy	1ryy	1ryy	1B^>	.	1g^	.	1ryy	1ryy	4r	.	1bb^	.
.	.	.	.	.	.	.	8cc\)	.	8ee\)	.	.	.	.	.	.	.	.	.	.	.	.	.	.	.	.	.	.	.	.	.	.	.	.	.	.
4G\	.	.	4G\	.	4B\ 4d	.	(8cc\	.	(8ee\	.	4G\	-fi-	.	4d\	-fi-	.	4g\	-fi-	.	4b\	-fi-	.	.	.	.	.	.	.	.	.	.	4aa\	.	.	.
.	.	.	.	.	.	.	8b\J)	.	8dd\J)	.	.	.	.	.	.	.	.	.	.	.	.	.	.	.	.	.	.	.	.	.	.	.	.	.	.
4G\	.	.	4G\	.	4B\ 4d	.	(8b/L	.	8dd\L	.	4G\	-te-	.	4d\	-te-	.	4g\	-te-	.	4b\	-te-	.	.	.	.	.	.	.	.	.	.	4aa\	.	.	.
.	.	.	.	.	.	.	8a/)	.	8cc\	.	.	.	.	.	.	.	.	.	.	.	.	.	.	.	.	.	.	.	.	.	.	.	.	.	.
4G\	.	.	4G\	.	4B\ 4d	.	(8a/	.	8cc\	.	8G\	-mi-	.	8d\	-mi-	.	8g\	-mi-	.	8b\	-mi-	.	.	.	.	.	.	.	.	.	.	4aa\	.	.	.
.	.	.	.	.	.	.	8g/J)	.	8b\J	.	8G\	-ni	.	8d\	-ni	.	8g\	-ni	.	8b\	-ni	.	.	.	.	.	.	.	.	.	.	.	.	.	.
!	!	!	!	!	!LO:LB:g=original	!	!	!	!	!	!	!	!	!	!	!	!LO:LB:g=original	!	!	!LO:LB:g=original	!	!	!	!	!	!	!	!	!	!	!	!	!	!	!
=41	=41	=41	=41	=41	=41	=41	=41	=41	=41	=41	=41	=41	=41	=41	=41	=41	=41	=41	=41	=41	=41	=41	=41	=41	=41	=41	=41	=41	=41	=41	=41	=41	=41	=41	=41
4D\	7_ 5_	.	4D\	.	4A/ 4f#	.	(8g/L	.	8b\L	.	4.F#\	Do-	.	4.d\	Do-	.	4.a\	Do-	.	4.cc\	Do-	.	1ryy	1ryy	1ryy	4r	.	4r	.	1ryy	1ryy	4aa\	.	4r	p
.	.	.	.	.	.	.	8f#/)	.	8a\	.	.	.	.	.	.	.	.	.	.	.	.	.	.	.	.	.	.	.	.	.	.	.	.	.	.
4D\	.	.	4D\	.	4A/ 4f#	.	(8f#/	.	8a\	.	.	.	.	.	.	.	.	.	.	.	.	.	.	.	.	4d/	.	4a\	.	.	.	4aa\	.	4ccc\	.
.	.	.	.	.	.	.	8g/J)	.	8b\J	.	8F#\	-mi-	.	8d\	-mi-	.	8a\	-mi-	.	8cc\	-mi-	.	.	.	.	.	.	.	.	.	.	.	.	.	.
4D\	.	.	4D\	.	4A/ 4f#	.	(8g/L	.	8b\L	.	2F#\	-no	.	2d\	-no	.	2a\	-no	.	2cc\	-no	.	.	.	.	4d/	.	4a\	.	.	.	4aa\	.	4ccc\	.
.	.	.	.	.	.	.	8a/)	.	8cc\	.	.	.	.	.	.	.	.	.	.	.	.	.	.	.	.	.	.	.	.	.	.	.	.	.	.
4D\	.	.	4D\	.	4A/ 4f#	.	(8a/	.	8cc\	.	.	.	.	.	.	.	.	.	.	.	.	.	.	.	.	4d/	.	4a\	.	.	.	4aa\	.	4ccc\	.
.	.	.	.	.	.	.	8a#X/J)	.	8cc#X\J	.	.	.	.	.	.	.	.	.	.	.	.	.	.	.	.	.	.	.	.	.	.	.	.	.	.
!	!	!	!LO:LB:g=original	!	!	!	!LO:LB:g=original	!	!	!	!	!	!	!	!	!	!	!	!	!	!	!	!	!	!	!	!	!	!	!	!	!	!	!	!
!	!	!	!	!	!	!	!	!	!	!	!	!	!	!	!	!	!	!	!	!	!	!	!	!	!	!	!	!	!	!	!	!LO:LB:g=original	!	!	!
=42	=42	=42	=42	=42	=42	=42	=42	=42	=42	=42	=42	=42	=42	=42	=42	=42	=42	=42	=42	=42	=42	=42	=42	=42	=42	=42	=42	=42	=42	=42	=42	=42	=42	=42	=42
*	*	*	*	*	*rep	*	*	*	*	*	*	*	*	*	*	*	*	*	*	*	*	*	*	*	*	*	*	*	*	*	*	*	*	*tremolo	*
!	!	!	!	!	!	!	!	!	!	!	!	!	!	!	!	!	!	!	!	!	!	!	!	!	!	!	!	!	!	!	!	!	!	!LO:TX:t=P:problem= 2 zamiast 1	!
4D\	.	.	4D\	.	4A/ 4f#	.	8a/L	.	8cc\L	.	2F#\	quo-	.	2d\	quo-	.	2a\	qui-	.	2cc\	quo-	.	1ryy	1ryy	1ryy	4d/	.	4a\	.	1ryy	1ryy	2gg\	.	8ccc'L	.
.	.	.	.	.	.	.	8b/J	.	8dd\	.	.	.	.	.	.	.	.	.	.	.	.	.	.	.	.	.	.	.	.	.	.	.	.	8ccc'	.
4D\	.	.	4D\	.	4A/ 4f#	.	4b/	.	8dd\	.	.	.	.	.	.	.	.	.	.	.	.	.	.	.	.	4d/	.	4a\	.	.	.	.	.	8ccc'	.
.	.	.	.	.	.	.	.	.	8dd#X\J	.	.	.	.	.	.	.	.	.	.	.	.	.	.	.	.	.	.	.	.	.	.	.	.	8ccc'	.
4D\	.	.	4D\	.	4A/ 4f#	.	8b/L	.	8dd#\L	.	4F#\	-ni-	.	4d\	-ni-	.	4a\	-ni-	.	4cc\	-ni-	.	.	.	.	4d/	.	4a\	.	.	.	2r	.	8ccc'	.
.	.	.	.	.	.	.	8cc/	.	8ee\	.	.	.	.	.	.	.	.	.	.	.	.	.	.	.	.	.	.	.	.	.	.	.	.	8ccc'	.
4D\	.	.	4D\	.	4A/ 4f#	.	8cc/	.	8ee\	.	4F#\	-am	.	4d\	-am	.	4a\	-am	.	4cc\	-am	.	.	.	.	4d/	.	4a\	.	.	.	.	.	8ccc'	.
.	.	.	.	.	.	.	8an/J	.	8cc\J	.	.	.	.	.	.	.	.	.	.	.	.	.	.	.	.	.	.	.	.	.	.	.	.	8ccc'J	.
*	*	*	*	*	*Xrep	*	*	*	*	*	*	*	*	*	*	*	*	*	*	*	*	*	*	*	*	*	*	*	*	*	*	*	*	*	*
=43	=43	=43	=43	=43	=43	=43	=43	=43	=43	=43	=43	=43	=43	=43	=43	=43	=43	=43	=43	=43	=43	=43	=43	=43	=43	=43	=43	=43	=43	=43	=43	=43	=43	=43	=43
4G\	3_	.	4G\	.	4B/ 4d	.	4g/	.	4b\	.	4G\	bo-	.	4d\	bo-	.	4g\	bo-	.	4b\	bo-	.	1ryy	1ryy	1ryy	2B/	.	2g\	.	1ryy	1ryy	1gg	.	2bb\	.
4G\	.	.	4G\	.	4B/ 4d	.	(8gg\L	.	(8bb\L	.	4G\	-nus	.	4d\	-nus	.	4g\	-nus	.	4b\	-nus	.	.	.	.	.	.	.	.	.	.	.	.	.	.
.	.	.	.	.	.	.	8ff#\J)	.	8aa\J)	.	.	.	.	.	.	.	.	.	.	.	.	.	.	.	.	.	.	.	.	.	.	.	.	.	.
4G\	.	.	4G\	.	4B/ 4d	.	(8ff#\L	.	(8aa\L	.	2r	.	.	2r	.	.	2r	.	.	2r	.	.	.	.	.	2r	.	2r	.	.	.	.	.	2r	.
.	.	.	.	.	.	.	8ee\J)	.	8gg\J)	.	.	.	.	.	.	.	.	.	.	.	.	.	.	.	.	.	.	.	.	.	.	.	.	.	.
4G\	.	.	4G\	.	4B/ 4d	.	(8ee\L	.	8gg\L	.	.	.	.	.	.	.	.	.	.	.	.	.	.	.	.	.	.	.	.	.	.	.	.	.	.
.	.	.	.	.	.	.	8dd\J)	.	8ff#\J	.	.	.	.	.	.	.	.	.	.	.	.	.	.	.	.	.	.	.	.	.	.	.	.	.	.
=44	=44	=44	=44	=44	=44	=44	=44	=44	=44	=44	=44	=44	=44	=44	=44	=44	=44	=44	=44	=44	=44	=44	=44	=44	=44	=44	=44	=44	=44	=44	=44	=44	=44	=44	=44
*	*	*	*	*	*rep	*	*	*	*	*	*	*	*	*	*	*	*	*	*	*	*	*	*	*	*	*	*	*	*	*	*	*	*	*	*
4G\	.	.	4G\	.	4B/ 4d	.	(8dd\L	.	8ff#\L	.	4.G\	quo-	.	4.d\	quo-	.	4.g\	quo-	.	4.b\	quo-	.	1ryy	1ryy	1ryy	1B^>	.	1g^	.	1ryy	1ryy	4r	.	1bb^	.
.	.	.	.	.	.	.	8cc\)	.	8ee\	.	.	.	.	.	.	.	.	.	.	.	.	.	.	.	.	.	.	.	.	.	.	.	.	.	.
4G\	.	.	4G\	.	4B/ 4d	.	(8cc\	.	8ee\	.	.	.	.	.	.	.	.	.	.	.	.	.	.	.	.	.	.	.	.	.	.	4aa\	.	.	.
.	.	.	.	.	.	.	8b\J)	.	8dd\J	.	8G\	-ni-	.	8d\	-ni-	.	8g\	-ni-	.	8b\	-ni-	.	.	.	.	.	.	.	.	.	.	.	.	.	.
!	!	!	!	!	!	!	!	!	!LO:LB:g=original	!	!	!	!	!	!	!	!	!	!	!	!	!	!	!	!	!	!	!	!	!	!	!	!	!	!
4G\	.	.	4G\	.	4B/ 4d	.	(8b/L	.	8dd\L	.	2G\	-am	.	2d\	-am	.	2g\	-am	.	2b\	-am	.	.	.	.	.	.	.	.	.	.	4aa\	.	.	.
.	.	.	.	.	.	.	8a/)	.	8cc\	.	.	.	.	.	.	.	.	.	.	.	.	.	.	.	.	.	.	.	.	.	.	.	.	.	.
4G\	.	.	4G\	.	4B/ 4d	.	(8a/	.	8cc\	.	.	.	.	.	.	.	.	.	.	.	.	.	.	.	.	.	.	.	.	.	.	4aa\	.	.	.
.	.	.	.	.	.	.	8g/J)	.	8b\J	.	.	.	.	.	.	.	.	.	.	.	.	.	.	.	.	.	.	.	.	.	.	.	.	.	.
!LO:LB:g=original	!	!	!	!	!	!	!	!	!	!	!LO:LB:g=original	!	!	!	!	!	!	!	!	!	!	!	!	!	!	!	!	!	!	!	!	!	!	!	!
*	*	*	*	*	*Xrep	*	*	*	*	*	*	*	*	*	*	*	*	*	*	*	*	*	*	*	*	*	*	*	*	*	*	*	*	*	*
=45	=45	=45	=45	=45	=45	=45	=45	=45	=45	=45	=45	=45	=45	=45	=45	=45	=45	=45	=45	=45	=45	=45	=45	=45	=45	=45	=45	=45	=45	=45	=45	=45	=45	=45	=45
4D\	7_ 5_	.	4D\	.	4A/ 4f#	.	(8g/L	.	8b\L	.	4F#\	in	.	4d\	in	.	4a\	in	.	4cc\	in	.	1ryy	1ryy	1ryy	4r	.	4r	.	1ryy	1ryy	4aa\	.	4r	.
.	.	.	.	.	.	.	8f#/)	.	8a\	.	.	.	.	.	.	.	.	.	.	.	.	.	.	.	.	.	.	.	.	.	.	.	.	.	.
!	!	!	!	!	!	!	!	!	!	!	!	!	!	!	!	!	!	!	!	!	!	!	!	!	!	!	!LO:HP:a	!	!LO:HP:a	!	!	!	!	!	!
4D\	.	.	4D\	.	4A/ 4f#	.	8f#/	.	8a\	.	4F#\	Sae-	.	4d\	sae-	.	4a\	sae-	.	4cc\	sae-	.	.	.	.	4d/	<	4a\	<	.	.	4aa\	.	4ccc\	.
.	.	.	.	.	.	.	8g/J	.	8b\J	.	.	.	.	.	.	.	.	.	.	.	.	.	.	.	.	.	.	.	.	.	.	.	.	.	.
4D\	.	.	4D\	.	4A/ 4f#	.	8g/L	.	8b\L	.	4F#\	-cu-	.	4d\	-cu-	.	4a\	-cu-	.	4cc\	-cu-	.	.	.	.	4d/	.	4a\	.	.	.	4aa\	.	4ccc\	.
.	.	.	.	.	.	.	8a/	.	8cc\	.	.	.	.	.	.	.	.	.	.	.	.	.	.	.	.	.	.	.	.	.	.	.	.	.	.
!	!	!	!	!	!	!	!	!	!	!	!	!	!	!	!	!	!	!	!	!	!	!	!	!	!	!	!	!	!	!	!	!	!	!	!LO:HP:b:t=cres
4D\	.	.	4D\	.	4A/ 4f#	.	8a/	.	8cc\	.	4F#\	-lum	.	4d\	-lum	.	4a\	-lum	.	4cc\	-lum	.	.	.	.	4d/	[[	4a\	[[	.	.	4aa\	.	4ccc\	<
.	.	.	.	.	.	.	8b/J	.	8dd\J	.	.	.	.	.	.	.	.	.	.	.	.	.	.	.	.	.	.	.	.	.	.	.	.	.	.
!	!	!	!	!	!	!	!LO:LB:g=original	!	!	!	!	!	!	!	!	!	!	!	!	!	!	!	!	!	!	!	!	!	!	!	!	!	!	!	!
!	!	!	!	!	!	!	!	!	!	!	!	!	!	!	!	!	!	!	!	!	!	!	!	!	!	!	!	!LO:LB:g=original	!	!	!	!	!	!	!
=46	=46	=46	=46	=46	=46	=46	=46	=46	=46	=46	=46	=46	=46	=46	=46	=46	=46	=46	=46	=46	=46	=46	=46	=46	=46	=46	=46	=46	=46	=46	=46	=46	=46	=46	=46
*	*	*	*	*	*rep	*	*	*	*	*	*	*	*	*	*	*	*	*	*	*	*	*	*	*	*	*	*	*	*	*	*	*	*	*	*
!	!	!	!	!	!	!	!	!	!	!LO:DY:a	!	!	!	!	!	!	!	!	!	!	!	!	!	!	!	!	!	!	!	!	!	!	!	!LO:TX:t=P:problem= 2 zamiast 1	!
!	!	!	!	!	!	!	!	!LO:HP:b:t=cres	!	!	!	!	!	!	!	!	!	!	!	!	!	!	!	!	!	!	!	!	!	!	!	!	!	!	!
!	!	!	!	!	!	!	!	!	!	!	!	!	!	!	!	!	!	!	!	!	!	!	!	!	!	!	!	!	!LO:HP:a:t=cres	!	!	!	!	!	!
4D\	.	.	4D\	.	4A/ 4f#	.	(8b\L	<	8dd\L	<	4F#\	mi-	.	4d\	mi-	.	4a\	mi-	.	4cc\	mi-	.	1ryy	1ryy	1ryy	4d/	.	4a\	<	1ryy	1ryy	4gg\	.	8ccc'L	.
.	.	.	.	.	.	.	8cc\)	.	8ee\	.	.	.	.	.	.	.	.	.	.	.	.	.	.	.	.	.	.	.	.	.	.	.	.	8ccc'	.
4D\	.	.	4D\	.	4A/ 4f#	.	(8cc\	.	8ee\	.	8F#\	-se-	.	8d\	-se-	.	8a\	-se-	.	8cc\	-se-	.	.	.	.	4d/	.	4a\	.	.	.	2bb\	.	8ccc'	.
.	.	.	.	.	.	.	8dd\J)	.	8ff#\J	.	8F#\	-ri-	.	8d\	-ri-	.	8a\	-ri-	.	8cc\	-ri-	.	.	.	.	.	.	.	.	.	.	.	.	8ccc'	.
!	!	!	!	!	!	!	!	!	!	!	!	!	!	!LO:LB:g=original	!	!	!	!	!	!	!	!	!	!	!	!	!	!	!	!	!	!	!	!	!
4D\	.	.	4D\	.	4A/ 4f#	.	(8dd\L	.	8ff#\L	.	4F#\	-cor-	.	4d\	-cor-	.	4a\	-cor-	.	4cc\	-cor-	.	.	.	.	4d/	.	4a\	.	.	.	.	.	8ccc'	.
.	.	.	.	.	.	.	8ee\)	.	8gg\	.	.	.	.	.	.	.	.	.	.	.	.	.	.	.	.	.	.	.	.	.	.	.	.	8ccc'	.
4D\	.	.	4D\	.	4A/ 4f#	.	(8ee\	.	8gg\	.	8F#\	-di-	.	8d\	-di-	.	8a\	-di-	.	8cc\	-di-	.	.	.	.	4d/	.	4a\	.	.	.	4aa#X\	.	8ccc'	.
.	.	.	.	.	.	.	8ff#\J)	.	8aa\J	[[	8F#\	-a	.	8d\	-a	.	8a\	-a	.	8cc\	-a	.	.	.	.	.	.	.	.	.	.	.	.	8ccc'J	.
*	*	*	*	*	*	*	*	*	*	*	*	*	*	*	*	*	*	*	*	*	*	*	*	*	*	*	*	*	*	*	*	*	*	*Xtremolo	*
!	!	!	!LO:LB:g=original	!	!	!	!	!	!	!	!	!	!	!	!	!	!LO:LB:g=original	!	!	!LO:LB:g=original	!	!	!	!	!	!	!	!	!	!	!	!	!	!	!
*	*	*	*	*	*Xrep	*	*	*	*	*	*	*	*	*	*	*	*	*	*	*	*	*	*	*	*	*	*	*	*	*	*	*	*	*	*
=47	=47	=47	=47	=47	=47	=47	=47	=47	=47	=47	=47	=47	=47	=47	=47	=47	=47	=47	=47	=47	=47	=47	=47	=47	=47	=47	=47	=47	=47	=47	=47	=47	=47	=47	=47
*^	*	*	*	*	*	*	*	*	*	*	*	*	*	*	*	*	*	*	*	*	*	*	*	*	*	*	*	*	*	*	*	*	*	*	*
!	!	!	!	!	!	!	!	!	!	!	!LO:DY:b	!	!	!	!	!	!	!	!	!	!	!	!	!	!	!	!	!	!	!	!	!	!	!	!	!
!	!	!	!LO:DY:b	!	!	!	!	!	!LO:DY:b	!	!	!	!	!	!	!	!	!	!	!	!	!	!	!	!	!	!	!	!	!	!	!	!	!	!	!
4G\	1GG	.	f	4G\	.	4B/ 4d	.	4gg\	f	4bb\	f	2G\	e-	.	2d\	e-	.	2g\	e-	.	2b\	e-	.	1ryy	1ryy	1ryy	4g\	f	4b\	f	1ryy	1ryy	4cccn\	.	4bb\	f
*	*	*	*	*	*	*	*	*tremolo	*	*tremolo	*	*	*	*	*	*	*	*	*	*	*	*	*	*	*	*	*	*	*	*	*	*	*	*	*	*
!	!	!	!	!	!	!	!LO:DY:b	!	!	!	!	!	!	!	!	!	!	!	!	!	!	!	!	!	!	!	!	!	!	!	!	!	!	!	!	!
4G\	.	5_ 3_	.	4G\	.	8b\L	f	8dd\L	.	8ddd'\L	.	.	.	.	.	.	.	.	.	.	.	.	.	.	.	.	4G/	.	4g\	.	.	.	2bb\	.	2ddd\	.
.	.	.	.	.	.	8b\	.	8dd\	.	8ddd'\	.	.	.	.	.	.	.	.	.	.	.	.	.	.	.	.	.	.	.	.	.	.	.	.	.	.
4G\	.	.	.	4G\	.	8b\	.	8dd\	.	8ddd'\	.	4G\	-jus	.	4d\	-jus	.	4g\	-jus	.	4b\	-jus	.	.	.	.	4G/	.	4g\	.	.	.	.	.	.	.
.	.	.	.	.	.	8b\J	.	8dd\J	.	8ddd'\J	.	.	.	.	.	.	.	.	.	.	.	.	.	.	.	.	.	.	.	.	.	.	.	.	.	.
*	*	*	*	*	*	*Xtremolo	*	*Xtremolo	*	*Xtremolo	*	*	*	*	*	*	*	*	*	*	*	*	*	*	*	*	*	*	*	*	*	*	*	*	*	*
[<4G\	.	4| #2	.	4G\	.	8a#X\L	.	8cc#X\L	.	8ccc#X\L	.	4r	.	.	4r	.	.	4r	.	.	4r	.	.	.	.	.	4G/	.	4g\	.	.	.	4aa#X\	.	4ccc#X\	.
.	.	.	.	.	.	8a#\J	.	8cc#\J	.	8ccc#\J	.	.	.	.	.	.	.	.	.	.	.	.	.	.	.	.	.	.	.	.	.	.	.	.	.	.
!	!	!	!	!	!	!	!	!	!	!	!	!	!	!	!	!	!	!	!	!	!	!	!	!	!	!	!LO:LB:g=original	!	!	!	!	!	!	!	!	!
=48	=48	=48	=48	=48	=48	=48	=48	=48	=48	=48	=48	=48	=48	=48	=48	=48	=48	=48	=48	=48	=48	=48	=48	=48	=48	=48	=48	=48	=48	=48	=48	=48	=48	=48	=48	=48
!	!	!	!	!	!	!	!	!	!	!	!	!LO:TX:a:t=3	!	!	!LO:TX:a:t=3	!	!	!LO:TX:a:t=3	!	!	!LO:TX:a:t=3	!	!	!	!	!	!	!	!	!	!	!	!	!	!	!
4G\]	1GG	6 4	.	4G\	.	8cc\L	.	8ee\L	.	8eee\L	.	1r	.	.	1r	.	.	1r	.	.	1r	.	.	1ryy	1ryy	1ryy	4G/	.	4g\	.	1ryy	1ryy	2ccc\	.	4eee\	.
.	.	.	.	.	.	8cc\J	.	8ee\J	.	8eee\J	.	.	.	.	.	.	.	.	.	.	.	.	.	.	.	.	.	.	.	.	.	.	.	.	.	.
*	*	*	*	*	*	*tremolo	*	*tremolo	*	*tremolo	*	*	*	*	*	*	*	*	*	*	*	*	*	*	*	*	*	*	*	*	*	*	*	*	*	*
4G\	.	5_ 3_	.	4G\	.	8b\L	.	8dd\L	.	8ddd'\L	.	.	.	.	.	.	.	.	.	.	.	.	.	.	.	.	4G/	.	4g\	.	.	.	.	.	2ddd\	.
.	.	.	.	.	.	8b\	.	8dd\	.	8ddd'\	.	.	.	.	.	.	.	.	.	.	.	.	.	.	.	.	.	.	.	.	.	.	.	.	.	.
4G\	.	.	.	4G\	.	8b\	.	8dd\	.	8ddd'\	.	.	.	.	.	.	.	.	.	.	.	.	.	.	.	.	4G/	.	4g\	.	.	.	4ccc\	.	.	.
.	.	.	.	.	.	8b\J	.	8dd\J	.	8ddd'\J	.	.	.	.	.	.	.	.	.	.	.	.	.	.	.	.	.	.	.	.	.	.	.	.	.	.
*	*	*	*	*	*	*Xtremolo	*	*Xtremolo	*	*Xtremolo	*	*	*	*	*	*	*	*	*	*	*	*	*	*	*	*	*	*	*	*	*	*	*	*	*	*
[<4G\	.	4| 2|	.	4G\	.	8a#X\L	.	8cc#X\L	.	8ccc#X\L	.	.	.	.	.	.	.	.	.	.	.	.	.	.	.	.	4G/	.	4g\	.	.	.	4bb\	.	4ccc\	.
.	.	.	.	.	.	8a#\J	.	8cc#\J	.	8ccc#\J	.	.	.	.	.	.	.	.	.	.	.	.	.	.	.	.	.	.	.	.	.	.	.	.	.	.
!	!	!	!	!	!	!LO:LB:g=original	!	!	!	!LO:LB:g=original	!	!	!	!	!	!	!	!	!	!	!	!	!	!	!	!	!	!	!	!	!	!	!	!	!	!
=49	=49	=49	=49	=49	=49	=49	=49	=49	=49	=49	=49	=49	=49	=49	=49	=49	=49	=49	=49	=49	=49	=49	=49	=49	=49	=49	=49	=49	=49	=49	=49	=49	=49	=49	=49	=49
*	*	*	*	*	*	*tremolo	*	*tremolo	*	*tremolo	*	*	*	*	*	*	*	*	*	*	*	*	*	*	*	*	*	*	*	*	*	*	*	*	*	*
4G\]	1GG	6_ 4_	.	4G\	.	8cc\L	.	8ee\L	.	8eee\L	.	1r	.	.	1r	.	.	1r	.	.	1r	.	.	1ryy	1ryy	1ryy	4G/	.	4g\	.	1ryy	1ryy	4aa\	.	2eee\	.
.	.	.	.	.	.	8cc\	.	8ee\	.	8eee\	.	.	.	.	.	.	.	.	.	.	.	.	.	.	.	.	.	.	.	.	.	.	.	.	.	.
4G\	.	.	.	4G\	.	8cc\	.	8ee\	.	8eee\	.	.	.	.	.	.	.	.	.	.	.	.	.	.	.	.	4G/	.	4g\	.	.	.	4gg\	.	.	.
.	.	.	.	.	.	8cc\J	.	8ee\	.	8eee\J	.	.	.	.	.	.	.	.	.	.	.	.	.	.	.	.	.	.	.	.	.	.	.	.	.	.
*	*	*	*	*	*	*Xtremolo	*	*Xtremolo	*	*Xtremolo	*	*	*	*	*	*	*	*	*	*	*	*	*	*	*	*	*	*	*	*	*	*	*	*	*	*
!	!	!	!	!	!	!	!	!	!	!	!	!	!	!	!	!	!	!	!	!	!	!	!	!	!	!	!	!	!	!	!	!	!	!	!LO:LB:g=original	!
4G\	.	.	.	4G\	.	8cc\L	.	8ee\	.	8eee\L	.	.	.	.	.	.	.	.	.	.	.	.	.	.	.	.	4G/	.	4g\	.	.	.	4ff#\	.	4eee\	.
.	.	.	.	.	.	8cc\	.	8ee\J	.	8eee\	.	.	.	.	.	.	.	.	.	.	.	.	.	.	.	.	.	.	.	.	.	.	.	.	.	.
4G\	.	5 3	.	4G\	.	8b\	.	8dd\L	.	8ddd\	.	.	.	.	.	.	.	.	.	.	.	.	.	.	.	.	4G/	.	4g\	.	.	.	4ee\	.	4ddd\	.
.	.	.	.	.	.	8b\J	.	8dd\J	.	8ddd\J	.	.	.	.	.	.	.	.	.	.	.	.	.	.	.	.	.	.	.	.	.	.	.	.	.	.
=50	=50	=50	=50	=50	=50	=50	=50	=50	=50	=50	=50	=50	=50	=50	=50	=50	=50	=50	=50	=50	=50	=50	=50	=50	=50	=50	=50	=50	=50	=50	=50	=50	=50	=50	=50	=50
4G\	1GG	4 2	.	4G\	.	8an\L	.	8ccn\L	.	8cccn\L	.	1r	.	.	1r	.	.	1r	.	.	1r	.	.	1ryy	1ryy	1ryy	2G/	.	2g\	.	1ryy	1ryy	4dd\	.	4cccn\	.
.	.	.	.	.	.	8a\	.	8cc\	.	8ccc\	.	.	.	.	.	.	.	.	.	.	.	.	.	.	.	.	.	.	.	.	.	.	.	.	.	.
4G\	.	3 1	.	4G\	.	8g\	.	8b\	.	8bb\	.	.	.	.	.	.	.	.	.	.	.	.	.	.	.	.	.	.	.	.	.	.	2aa^\	.	4bb\	.
.	.	.	.	.	.	8g\J	.	8b\J	.	8bb\J	.	.	.	.	.	.	.	.	.	.	.	.	.	.	.	.	.	.	.	.	.	.	.	.	.	.
4G\	.	9 7	.	4G\	.	8f#\L	.	8a\L	.	8aa\L	.	.	.	.	.	.	.	.	.	.	.	.	.	.	.	.	2r	.	2r	.	.	.	.	.	4aa\	.
.	.	.	.	.	.	8f#\	.	8a\	.	8aa\	.	.	.	.	.	.	.	.	.	.	.	.	.	.	.	.	.	.	.	.	.	.	.	.	.	.
(<4G\	.	8 6	.	4G\	.	8e\	.	8g\	.	8gg\	.	.	.	.	.	.	.	.	.	.	.	.	.	.	.	.	.	.	.	.	.	.	4gg#X\	.	4gg\	.
.	.	.	.	.	.	8e\J	.	8g\J	.	8gg\J	.	.	.	.	.	.	.	.	.	.	.	.	.	.	.	.	.	.	.	.	.	.	.	.	.	.
!	!	!	!	!	!	!	!	!LO:LB:g=original	!	!	!	!	!	!	!	!	!	!	!	!	!	!	!	!	!	!	!	!	!	!	!	!	!	!	!	!
=51	=51	=51	=51	=51||:	=51	=51	=51	=51	=51	=51	=51	=51	=51	=51	=51	=51	=51	=51	=51	=51	=51	=51	=51	=51	=51	=51	=51	=51	=51||:	=51	=51	=51	=51	=51	=51	=51
!	!	!	!	!	!	!	!	!	!	!	!	!	!	!	!	!	!	!	!	!	!	!	!	!	!	!	!	!	!	!	!	!	!	!	!	!
4D\)	1DD	3	.	4D\	.	8d\L	.	8f#/L	.	8ff#\L	.	4r	.	.	4r	.	.	4r	.	.	4r	.	.	1ryy	1ryy	1ryy	4D/	.	4d/	.	1ryy	1ryy	4aa\	.	4ff#\	.
.	.	.	.	.	.	8d\J	.	8f#/J	.	8ff#\J	.	.	.	.	.	.	.	.	.	.	.	.	.	.	.	.	.	.	.	.	.	.	.	.	.	.
!	!	!	!	!	!	!	!	!	!	!	!	!	!	!	!	!	!	!	!	!	!	!	!LO:DY:b	!	!	!	!	!	!	!	!	!	!	!	!	!
*	*	*	*	*	*	*tremolo	*	*tremolo	*	*tremolo	*	*	*	*	*	*	*	*	*	*	*	*	*	*	*	*	*	*	*	*	*	*	*	*	*	*
4D\	.	7_ 5_	.	4D\	.	8a\L	.	8cc\L	.	8ccc\L	.	2D^\	Glo-	.	2d\	Glo-	.	2a\	Glo-	.	2cc^\	Flo-	f	.	.	.	2D^/	.	2d^>/	.	.	.	2ccc^\	.	2ccc\	.
.	.	.	.	.	.	8a\	.	8cc\	.	8ccc\	.	.	.	.	.	.	.	.	.	.	.	.	.	.	.	.	.	.	.	.	.	.	.	.	.	.
4D\	.	.	.	4D\	.	8a\	.	8cc\	.	8ccc\	.	.	.	.	.	.	.	.	.	.	.	.	.	.	.	.	.	.	.	.	.	.	.	.	.	.
.	.	.	.	.	.	8a\J	.	8cc\J	.	8ccc\J	.	.	.	.	.	.	.	.	.	.	.	.	.	.	.	.	.	.	.	.	.	.	.	.	.	.
*	*	*	*	*	*	*Xtremolo	*	*Xtremolo	*	*Xtremolo	*	*	*	*	*	*	*	*	*	*	*	*	*	*	*	*	*	*	*	*	*	*	*	*	*	*
[<4D\	.	6 4|	.	4D\	.	8g#X\L	.	8b\L	.	8bb\L	.	4D\	-ri-	.	4d\	-ri-	.	4g#X\	-ri-	.	4b\	-ri-	.	.	.	.	4D/	.	4d/	.	.	.	4bb\	.	4bb\	.
.	.	.	.	.	.	8g#\J	.	8b\J	.	8bb\J	.	.	.	.	.	.	.	.	.	.	.	.	.	.	.	.	.	.	.	.	.	.	.	.	.	.
!LO:LB:g=original	!	!	!	!LO:LB:g=original	!	!	!	!	!	!	!	!	!	!	!	!	!	!	!	!	!	!	!	!	!	!	!	!	!	!	!	!	!	!	!	!
=52	=52	=52	=52	=52	=52	=52	=52	=52	=52	=52||:	=52	=52	=52	=52	=52	=52	=52	=52	=52	=52	=52	=52	=52	=52	=52	=52	=52	=52	=52	=52	=52	=52	=52	=52	=52||:	=52
!	!	!	!	!	!	!	!	!	!	!	!	!	!	!	!	!	!	!	!	!	!	!	!	!	!	!	!	!	!	!	!	!	!	!	!	!
4D\]	1DD	4 5	.	4D\	.	8a\L	.	8cc\L	.	8ccc\L	.	4D\	-a	.	4d\	-ja	.	4a\	-a	.	4cc\	-a	.	1ryy	1ryy	1ryy	4D/	.	4d/	.	1ryy	1ryy	4aa\	.	4ccc\	.
.	.	.	.	.	.	8a\J	.	8cc\J	.	8ccc\J	.	.	.	.	.	.	.	.	.	.	.	.	.	.	.	.	.	.	.	.	.	.	.	.	.	.
*	*	*	*	*	*	*tremolo	*	*tremolo	*	*tremolo	*	*	*ij	*	*	*ij	*	*	*ij	*	*	*ij	*	*	*	*	*	*	*	*	*	*	*	*	*	*
4D\	.	9_ 7_	.	4D\	.	8cc\L	.	8ee\L	.	8eee\L	.	2D^\	Glo-	.	2d\	Glo-	.	2cc^\	Glo-	.	2ee\	Glo-	.	.	.	.	2D^/	.	2d^>/	.	.	.	2aa\	.	2eee\	.
.	.	.	.	.	.	8cc\	.	8ee\	.	8eee\	.	.	.	.	.	.	.	.	.	.	.	.	.	.	.	.	.	.	.	.	.	.	.	.	.	.
4D\	.	.	.	4D\	.	8cc\	.	8ee\	.	8eee\	.	.	.	.	.	.	.	.	.	.	.	.	.	.	.	.	.	.	.	.	.	.	.	.	.	.
.	.	.	.	.	.	8cc\J	.	8ee\J	.	8eee\J	.	.	.	.	.	.	.	.	.	.	.	.	.	.	.	.	.	.	.	.	.	.	.	.	.	.
*	*	*	*	*	*	*Xtremolo	*	*Xtremolo	*	*Xtremolo	*	*	*	*	*	*	*	*	*	*	*	*	*	*	*	*	*	*	*	*	*	*	*	*	*	*
[<4D\	.	8 6	.	4D\	.	8b\L	.	8dd\L	.	8ddd\L	.	4D\	-ri-	.	4d\	-ri-	.	4b\	-ri-	.	4dd\	-ri-	.	.	.	.	4D/	.	4d/	.	.	.	4gg#X\	.	4ddd\	.
.	.	.	.	.	.	8b\J	.	8dd\J	.	8ddd\J	.	.	.	.	.	.	.	.	.	.	.	.	.	.	.	.	.	.	.	.	.	.	.	.	.	.
!	!	!	!	!	!	!	!	!	!	!	!	!	!	!	!	!	!	!	!	!	!	!	!	!	!	!	!	!	!	!	!	!	!LO:LB:g=original	!	!	!
=53	=53	=53	=53	=53	=53	=53	=53	=53	=53	=53	=53	=53	=53	=53	=53	=53	=53	=53	=53	=53	=53	=53	=53	=53	=53	=53	=53	=53	=53:||	=53	=53	=53	=53	=53	=53	=53
*	*	*	*	*	*	*tremolo	*	*tremolo	*	*tremolo	*	*	*	*	*	*	*	*	*	*	*	*	*	*	*	*	*	*	*	*	*	*	*	*	*	*
4D\]	1DD	7_ 5_	.	4D\	.	8a\L	.	8cc\L	.	8ccc\L	.	4D\	-a	.	4d\	-ja	.	4a\	-a	.	4cc\	-a	.	1ryy	1ryy	1ryy	4D/	.	4d/yy	.	1ryy	1ryy	4aa\	.	2ccc\	.
.	.	.	.	.	.	8a\	.	8cc\	.	8ccc\	.	.	.	.	.	.	.	.	.	.	.	.	.	.	.	.	.	.	.	.	.	.	.	.	.	.
4D\	.	.	.	4D\	.	8a\	.	8cc\	.	8ccc\	.	2D\	Glo-	.	2d\	Glo-	.	2a^\	Glo-	.	2cc\	Glo-	.	.	.	.	2D^/	.	2d^/yy	.	.	.	2ccc^\	.	.	.
.	.	.	.	.	.	8a\J	.	8cc\	.	8ccc\J	.	.	.	.	.	.	.	.	.	.	.	.	.	.	.	.	.	.	.	.	.	.	.	.	.	.
*	*	*	*	*	*	*Xtremolo	*	*Xtremolo	*	*Xtremolo	*	*	*	*	*	*	*	*	*	*	*	*	*	*	*	*	*	*	*	*	*	*	*	*	*	*
4D\	.	.	.	4D\	.	8a\L	.	8cc\	.	8ccc\L	.	.	.	.	.	.	.	.	.	.	.	.	.	.	.	.	.	.	.	.	.	.	.	.	4ccc\	.
.	.	.	.	.	.	8a\	.	8cc\J	.	8ccc\	.	.	.	.	.	.	.	.	.	.	.	.	.	.	.	.	.	.	.	.	.	.	.	.	.	.
[<4D\	.	6 4|	.	4D\	.	8g#X\	.	8b\L	.	8bb\	.	4D\	-ri-	.	4d\	-ri-	.	4g#X\	-ri-	.	4b\	-ri-	.	.	.	.	4D/	.	4d/yy	.	.	.	4bb\	.	4bb\	.
.	.	.	.	.	.	8g#\J	.	8b\J	.	8bb\J	.	.	.	.	.	.	.	.	.	.	.	.	.	.	.	.	.	.	.	.	.	.	.	.	.	.
!	!	!	!	!	!	!	!	!	!	!	!	!LO:LB:g=original	!	!	!	!	!	!	!	!	!	!	!	!	!	!	!	!	!	!	!	!	!	!	!	!
=54	=54	=54	=54	=54	=54	=54	=54	=54	=54	=54:||	=54	=54	=54	=54	=54	=54	=54	=54	=54	=54	=54	=54	=54	=54	=54	=54	=54	=54	=54	=54	=54	=54	=54	=54	=54:||	=54
4D\]	1DD	7 5	.	4D\	.	8a\L	.	8cc\L	.	8ccc\Lyy	.	4D\	-a	.	4d\	-ja	.	4a\	-a	.	4cc\	-ja	.	1ryy	1ryy	1ryy	4D/	.	4d/yy	.	1ryy	1ryy	2aa\	.	4ccc\yy	.
.	.	.	.	.	.	8a\J	.	8cc\J	.	8ccc\Jyy	.	.	.	.	.	.	.	.	.	.	.	.	.	.	.	.	.	.	.	.	.	.	.	.	.	.
*	*	*	*	*	*	*tremolo	*	*tremolo	*	*	*	*	*	*	*	*	*	*	*	*	*	*	*	*	*	*	*	*	*	*	*	*	*	*	*	*
4D\	.	9_ 7_	.	4D\	.	8cc\L	.	8ee\L	.	8eee\Lyy	.	2D^\	Glo-	.	2d\	Glo-	.	2cc^\	Glo-	.	2ee\	Glo-	.	.	.	.	2D^/	.	2d^/yy	.	.	.	.	.	2eee\yy	.
.	.	.	.	.	.	8cc\	.	8ee\	.	8eee\yy	.	.	.	.	.	.	.	.	.	.	.	.	.	.	.	.	.	.	.	.	.	.	.	.	.	.
4D\	.	.	.	4D\	.	8cc\	.	8ee\	.	8eee\yy	.	.	.	.	.	.	.	.	.	.	.	.	.	.	.	.	.	.	.	.	.	.	4aa\	.	.	.
.	.	.	.	.	.	8cc\J	.	8ee\J	.	8eee\Jyy	.	.	.	.	.	.	.	.	.	.	.	.	.	.	.	.	.	.	.	.	.	.	.	.	.	.
*	*	*	*	*	*	*Xtremolo	*	*Xtremolo	*	*	*	*	*	*	*	*	*	*	*	*	*	*	*	*	*	*	*	*	*	*	*	*	*	*	*	*
[<4D\	.	8 6	.	4D\	.	8b\L	.	8dd\L	.	8ddd\Lyy	.	4D\	-ri-	.	4d\	-ri-	.	4b\	-ri-	.	4dd\	-ri-	.	.	.	.	4D/	.	4d/yy	.	.	.	4gg\	.	4ddd\yy	.
.	.	.	.	.	.	8b\J	.	8dd\J	.	8ddd\Jyy	.	.	.	.	.	.	.	.	.	.	.	.	.	.	.	.	.	.	.	.	.	.	.	.	.	.
!	!	!	!	!	!	!LO:LB:g=original	!	!	!	!	!	!	!	!	!	!	!	!	!	!	!	!	!	!	!	!	!	!	!	!	!	!	!	!	!	!
=55	=55	=55	=55	=55:||	=55	=55	=55	=55||:	=55	=55	=55	=55	=55	=55	=55	=55	=55	=55	=55	=55	=55	=55	=55	=55	=55	=55	=55	=55	=55	=55	=55	=55	=55	=55	=55	=55
*	*	*	*	*	*	*tremolo	*	*tremolo	*	*	*	*	*	*	*	*	*	*	*Xij	*	*	*Xij	*	*	*	*	*	*	*	*	*	*	*	*	*	*
4D\]	1DD	7_ 5_	.	4D\yy	.	8a\L	.	8cc\L	.	8ccc\Lyy	.	4D\	-a	.	4d\	-ja	.	4a\	-a	.	4cc\	-ja	.	1ryy	1ryy	1ryy	2D/	.	2d/	.	1ryy	1ryy	2ff#\	.	2ccc\yy	.
.	.	.	.	.	.	8a\	.	8cc\	.	8ccc\yy	.	.	.	.	.	.	.	.	.	.	.	.	.	.	.	.	.	.	.	.	.	.	.	.	.	.
*	*	*	*	*	*	*	*	*	*	*	*	*	*	*	*	*	*	*	*	*	*	*Xij	*	*	*	*	*	*	*	*	*	*	*	*	*	*
4D\	.	.	.	4D\yy	.	8a\	.	8cc\	.	8ccc\yy	.	4r	.	.	4r	.	.	4r	.	.	4r	.	.	.	.	.	.	.	.	.	.	.	.	.	.	.
.	.	.	.	.	.	8a\	.	8cc\J	.	8ccc\Jyy	.	.	.	.	.	.	.	.	.	.	.	.	.	.	.	.	.	.	.	.	.	.	.	.	.	.
*	*	*	*	*	*	*Xtremolo	*	*Xtremolo	*	*	*	*	*Xij	*	*	*Xij	*	*	*Xij	*	*	*Xij	*	*	*	*	*	*	*	*	*	*	*	*	*	*
4D\	.	.	.	4D\yy	.	8a\	.	8cc\L	.	8ccc\Lyy	.	4D\	Pa-	.	4d\	Pa-	.	4a\	Pa-	.	4cc\	Pa-	.	.	.	.	2r	.	2r	.	.	.	4ff#\	.	4ccc\yy	.
.	.	.	.	.	.	8a\J	.	8cc\	.	8ccc\yy	.	.	.	.	.	.	.	.	.	.	.	.	.	.	.	.	.	.	.	.	.	.	.	.	.	.
[<4D\	.	6 4	.	4D\yy	.	8gn\L	.	8b\	.	8bb\yy	.	4D\	-tri	.	4d\	-tri	.	4g\	-tri	.	4b\	-tri	.	.	.	.	.	.	.	.	.	.	4ee\	.	4bb\yy	.
.	.	.	.	.	.	8g\J	.	8b\J	.	8bb\Jyy	.	.	.	.	.	.	.	.	.	.	.	.	.	.	.	.	.	.	.	.	.	.	.	.	.	.
!	!	!	!	!	!	!	!	!	!	!LO:LB:g=original	!	!	!	!	!LO:LB:g=original	!	!	!	!	!	!	!	!	!	!	!	!	!	!	!	!	!	!	!	!	!
=56	=56	=56	=56	=56	=56	=56	=56	=56:||	=56	=56	=56	=56	=56	=56	=56	=56	=56	=56	=56	=56	=56	=56	=56	=56	=56	=56	=56	=56	=56	=56	=56	=56	=56	=56	=56	=56
*	*	*	*	*	*	*tremolo	*	*	*	*tremolo	*	*	*	*	*	*	*	*	*	*	*	*	*	*	*	*	*	*	*	*	*	*	*	*	*	*
4D\]	1DD	5_ 3_	.	4D\yy	.	8a\L	.	8cc\Lyy	.	8aa\L	.	4D\	et	.	4d\	et	.	4fn\	et	.	4a\	et	.	1ryy	1ryy	1ryy	2D/	.	2d/	.	1ryy	1ryy	2ff#\	.	2aa\	.
.	.	.	.	.	.	8a\	.	8cc\yy	.	8aa\	.	.	.	.	.	.	.	.	.	.	.	.	.	.	.	.	.	.	.	.	.	.	.	.	.	.
4D\	.	.	.	4D\yy	.	8a\	.	8cc\yy	.	8aa\	.	4D\	Fi-	.	4d\	Fi-	.	4f\	Fi-	.	4a\	Fi-	.	.	.	.	.	.	.	.	.	.	.	.	.	.
.	.	.	.	.	.	8a\	.	8cc\Jyy	.	8aa\J	.	.	.	.	.	.	.	.	.	.	.	.	.	.	.	.	.	.	.	.	.	.	.	.	.	.
*	*	*	*	*	*	*Xtremolo	*	*	*	*Xtremolo	*	*	*	*	*	*	*	*	*	*	*	*	*	*	*	*	*	*	*	*	*	*	*	*	*	*
4D\	.	.	.	4D\yy	.	8a\	.	8cc\Lyy	.	8aa\L	.	2D\	-li-	.	2d\	-li-	.	(4f\	-li-	.	4a\	-li-	.	.	.	.	2r	.	2r	.	.	.	4ff#\	.	4aa\	.
.	.	.	.	.	.	8a\J	.	8cc\yy	.	8aa\	.	.	.	.	.	.	.	.	.	.	.	.	.	.	.	.	.	.	.	.	.	.	.	.	.	.
[<4D\	.	4 2	.	4D\yy	.	8g\L	.	8b\yy	.	8gg\	.	.	.	.	.	.	.	4e\)	.	.	(4g\	.	.	.	.	.	.	.	.	.	.	.	4gg\	.	4gg\	.
.	.	.	.	.	.	8g\J	.	8b\Jyy	.	8gg\J	.	.	.	.	.	.	.	.	.	.	.	.	.	.	.	.	.	.	.	.	.	.	.	.	.	.
!	!	!	!	!	!	!	!	!	!	!	!	!	!	!	!	!	!	!LO:LB:g=original	!	!	!	!	!	!	!	!	!	!	!	!	!	!	!	!	!	!
=57	=57	=57	=57	=57	=57	=57	=57	=57	=57	=57	=57	=57	=57	=57	=57	=57	=57	=57	=57	=57	=57	=57	=57	=57	=57	=57	=57	=57	=57	=57	=57	=57	=57	=57	=57	=57
*	*	*	*	*	*	*tremolo	*	*tremolo	*	*tremolo	*	*	*	*	*	*	*	*	*	*	*	*	*	*	*	*	*	*	*	*	*	*	*	*	*	*
4D\]	1DD	5_ 3_	.	4D\yy	.	8f#\L	.	8a\L	.	8ff#\L	.	4D\	-o	.	4d\	-o	.	4d\	-o	.	4f#\)	-o	.	1ryy	1ryy	1ryy	2D/	.	2d/	.	1ryy	1ryy	4gg#X\	.	2aa\	.
.	.	.	.	.	.	8f#\	.	8a\	.	8ff#\	.	.	.	.	.	.	.	.	.	.	.	.	.	.	.	.	.	.	.	.	.	.	.	.	.	.
4D\	.	.	.	4D\yy	.	8f#\	.	8a\	.	8ff#\	.	4r	.	.	4r	.	.	4r	.	.	4r	.	.	.	.	.	.	.	.	.	.	.	4aa\	.	.	.
.	.	.	.	.	.	8f#\J	.	8a\J	.	8ff#\J	.	.	.	.	.	.	.	.	.	.	.	.	.	.	.	.	.	.	.	.	.	.	.	.	.	.
!	!	!	!	!	!	!	!	!	!	!	!	!	!	!	!	!	!	!	!	!	!LO:LB:g=original	!	!	!	!	!	!	!	!	!	!	!	!	!	!	!
*	*	*	*	*	*	*Xtremolo	*	*Xtremolo	*	*Xtremolo	*	*	*	*	*	*	*	*	*	*	*	*	*	*	*	*	*	*	*	*	*	*	*	*	*	*
4D\	.	.	.	4D\yy	.	8f#\L	.	8a\L	.	8ff#\L	.	4D\ 4d	et	.	4d\	et	.	4f#\	et	.	4a\	et	.	.	.	.	2r	.	2r	.	.	.	4aa#X\	.	4aa\	.
.	.	.	.	.	.	8f#\	.	8a\	.	8ff#\	.	.	.	.	.	.	.	.	.	.	.	.	.	.	.	.	.	.	.	.	.	.	.	.	.	.
[<4D\	.	6 4	.	4D\yy	.	8g\	.	8a#X\	.	8gg\	.	4D\ 4d	Spi-	.	4d\	Spi-	.	4g\	Spi-	.	4a#X\	spi-	.	.	.	.	.	.	.	.	.	.	4bb\	.	4aa#X\	.
.	.	.	.	.	.	8g\J	.	8a#\J	.	8gg\J	.	.	.	.	.	.	.	.	.	.	.	.	.	.	.	.	.	.	.	.	.	.	.	.	.	.
!	!	!	!	!	!	!	!	!LO:LB:g=original	!	!	!	!	!	!	!	!	!	!	!	!	!	!	!	!	!	!	!	!	!	!	!	!	!	!	!	!
!	!	!	!	!	!	!	!	!	!	!	!	!	!	!	!	!	!	!	!	!	!	!	!	!	!	!	!	!	!LO:LB:g=original	!	!	!	!	!	!	!
!LO:LB:g=original	!	!	!	!	!	!	!	!	!	!	!	!	!	!	!	!	!	!	!	!	!	!	!	!	!	!	!LO:LB:g=original	!	!	!	!	!	!	!	!	!
=58	=58	=58	=58	=58	=58	=58	=58	=58	=58	=58	=58	=58	=58	=58	=58	=58	=58	=58	=58	=58	=58	=58	=58	=58	=58	=58	=58	=58	=58	=58	=58	=58	=58	=58	=58	=58
4D\]	1DD	6 4|	.	4D\yy	.	8g#X\L	.	8b\L	.	8gg#X\L	.	4D\ 4d	-ri-	.	4d\	-ri-	.	4g#X\	-ri-	.	4b\	-ri-	.	1ryy	1ryy	1ryy	4D/	.	4d/	.	1ryy	1ryy	4ggn\	.	4bb\	.
.	.	.	.	.	.	8g#\	.	8b\	.	8gg#\	.	.	.	.	.	.	.	.	.	.	.	.	.	.	.	.	.	.	.	.	.	.	.	.	.	.
4D\	.	7 5	.	4D\yy	.	8a\	.	8cc\	.	8aa\	.	8D\ 8d	-tu-	.	8d\	-tu-	.	8a\	-tu-	.	8cc\	-tu-	.	.	.	.	4D/	.	4d/	.	.	.	4gg\	.	4ccc\	.
.	.	.	.	.	.	8a\J	.	8cc\J	.	8aa\J	.	8D\ 8d	-i	.	8d\	-i	.	8a\	-i	.	8cc\	-i	.	.	.	.	.	.	.	.	.	.	.	.	.	.
4D\	.	7| 5|	.	4D\yy	.	8a#X\L	.	8cc#X\L	.	8aa#X\L	.	2D\ 2d	San-	.	2d\	San-	.	(4a#X\	San-	.	(4cc#X\	san-	.	.	.	.	4D/	.	4d/	.	.	.	4aan\	.	4ccc#X\	.
.	.	.	.	.	.	8a#\	.	8cc#\	.	8aa#\	.	.	.	.	.	.	.	.	.	.	.	.	.	.	.	.	.	.	.	.	.	.	.	.	.	.
4D\	.	8 6	.	4D\yy	.	8b\	.	8dd\	.	8bb\	.	.	.	.	.	.	.	4b\)	.	.	4dd\)	.	.	.	.	.	4D/	.	4d/	.	.	.	4bb\	.	4ddd\	.
.	.	.	.	.	.	8b\J	.	8dd\J	.	8bb\J	.	.	.	.	.	.	.	.	.	.	.	.	.	.	.	.	.	.	.	.	.	.	.	.	.	.
*v	*v	*	*	*	*	*	*	*	*	*	*	*	*	*	*	*	*	*	*	*	*	*	*	*	*	*	*	*	*	*	*	*	*	*	*	*
=59	=59	=59	=59	=59	=59	=59	=59	=59	=59	=59	=59	=59	=59	=59	=59	=59	=59	=59	=59	=59	=59	=59	=59	=59	=59	=59	=59	=59	=59	=59	=59	=59	=59	=59	=59
*	*	*	*	*	*	*	*	*	*	*	*^	*	*	*	*	*	*	*	*	*	*	*	*	*	*	*	*	*	*	*	*	*	*	*	*
*	*	*	*	*	*tremolo	*	*tremolo	*	*tremolo	*	*	*	*	*	*	*	*	*	*	*	*	*	*	*	*	*	*	*	*	*	*	*	*	*	*	*
4GG\ 4G	3	.	4GG/	.	8g\L	.	8b\L	.	8gg\L	.	4G\	4rb	-cto	.	4d\	-cto	.	4g\	-cto	.	4b\	-cto	.	1ryy	1ryy	1ryy	4G/	.	4g\	.	1ryy	1ryy	4gg\	.	4bb\	.
.	.	.	.	.	8g\	.	8b\	.	8gg\	.	.	.	.	.	.	.	.	.	.	.	.	.	.	.	.	.	.	.	.	.	.	.	.	.	.	.
4G\	8_ 3	.	4G\	.	8g\	.	8b\	.	8gg\	.	2G\	4G/	Si-	.	2g\	Si-	.	(4g\	Si-	.	(4b\	Si-	.	.	.	.	4G/	.	4g\	.	.	.	4gg\	.	4bb\	.
.	.	.	.	.	8g\J	.	8b\J	.	8gg\J	.	.	.	.	.	.	.	.	.	.	.	.	.	.	.	.	.	.	.	.	.	.	.	.	.	.	.
*	*	*	*	*	*Xtremolo	*	*Xtremolo	*	*	*	*	*	*	*	*	*	*	*	*	*	*	*	*	*	*	*	*	*	*	*	*	*	*	*	*	*
4A\	x 3	.	4A\	.	8an\L	.	8cc\L	.	8gg\L	.	.	4A/	.	.	.	.	.	4a\)	.	.	4ccn\	.	<	.	.	.	4G/	.	4g\	.	.	.	4aa\	.	4cccn\	.
.	.	.	.	.	8a\	.	8cc\	.	8gg\	.	.	.	.	.	.	.	.	.	.	.	.	.	[	.	.	.	.	.	.	.	.	.	.	.	.	.
4B\	x 3	.	4B\	.	8b\	.	8dd\	.	8gg\	.	4G\	4B/	-cut	.	4g\	-cut	.	4b\	-cut	.	4dd\)	-cut	.	.	.	.	4G/	.	4g\	.	.	.	4bb\	.	4ddd\	.
.	.	.	.	.	8b\J	.	8dd\J	.	8gg\J	.	.	.	.	.	.	.	.	.	.	.	.	.	.	.	.	.	.	.	.	.	.	.	.	.	.	.
=60	=60	=60	=60	=60	=60	=60	=60	=60	=60	=60	=60	=60	=60	=60	=60	=60	=60	=60	=60	=60	=60	=60	=60	=60	=60	=60	=60	=60	=60	=60	=60	=60	=60||:	=60	=60||:	=60
!	!	!	!	!	!	!	!	!	!	!	!	!	!	!	!	!	!	!	!	!	!	!	!	!	!	!	!	!	!	!	!	!	!	!	!	!
*	*	*	*	*	*tremolo	*	*tremolo	*	*	*	*	*	*	*	*	*	*	*	*	*	*	*	*	*	*	*	*	*	*	*	*	*	*	*	*	*
2c\	3	.	2c\	.	8cc\L	.	8ee\L	.	8gg\L	.	1G	2c/	e-	.	1g	e-	.	2cc\	e-	.	(2ee\	e-	.	1ryy	1ryy	1ryy	2G/	.	2g\	.	1ryy	1ryy	2ccc\	.	2eee\	.
.	.	.	.	.	8cc\	.	8ee\	.	8gg\	.	.	.	.	.	.	.	.	.	.	.	.	.	.	.	.	.	.	.	.	.	.	.	.	.	.	.
.	.	.	.	.	8cc\	.	8ee\	.	8gg\	.	.	.	.	.	.	.	.	.	.	.	.	.	.	.	.	.	.	.	.	.	.	.	.	.	.	.
.	.	.	.	.	8cc\J	.	8ee\J	.	8gg\J	.	.	.	.	.	.	.	.	.	.	.	.	.	.	.	.	.	.	.	.	.	.	.	.	.	.	.
*	*	*	*	*	*Xtremolo	*	*Xtremolo	*	*	*	*	*	*	*	*	*	*	*	*	*	*	*	*	*	*	*	*	*	*	*	*	*	*	*	*	*
4B\	3	.	4B\	.	8b\L	.	8dd\L	.	8gg\L	.	.	4B/	.	.	.	.	.	(4b\	.	.	4dd\	.	.	.	.	.	2r	.	2r	.	.	.	4bb\	.	4ddd\	.
.	.	.	.	.	8b\	.	8dd\	.	8gg\	.	.	.	.	.	.	.	.	.	.	.	.	.	.	.	.	.	.	.	.	.	.	.	.	.	.	.
4A#X\	3	.	4A#X\	.	8a#X\	.	8cc#X\	.	8gg\	.	.	4A#X/	.	.	.	.	.	4a#X\)	.	.	4cc#X\)	.	.	.	.	.	.	.	.	.	.	.	4aa#X\	.	4ccc#X\	.
.	.	.	.	.	8a#\J	.	8cc#\J	.	8gg\J	.	.	.	.	.	.	.	.	.	.	.	.	.	.	.	.	.	.	.	.	.	.	.	.	.	.	.
!	!	!	!	!	!LO:LB:g=original	!	!	!	!	!	!	!LO:LB:g=original	!	!	!	!	!	!LO:LB:g=original	!	!	!	!	!	!	!	!	!	!	!	!	!	!	!	!	!	!
=61	=61	=61	=61	=61	=61	=61	=61	=61	=61	=61	=61	=61	=61	=61	=61	=61	=61	=61	=61	=61	=61	=61	=61	=61	=61	=61	=61	=61	=61	=61	=61	=61	=61	=61	=61	=61
4B\	3	.	4B\	.	8b\L	.	8dd\L	.	8gg\L	.	4G\	4B/	-rat	.	4g\	-rat	.	4b\	-rat	.	4dd\	-rat	.	1ryy	1ryy	1ryy	4G/	.	4g\	.	1ryy	1ryy	4bb\	.	4ddd\	.
.	.	.	.	.	8b\	.	8dd\	.	8gg\	.	.	.	.	.	.	.	.	.	.	.	.	.	.	.	.	.	.	.	.	.	.	.	.	.	.	.
4G\	3	.	4G\	.	8g\	.	8b\	.	8gg\	.	2G\	4G/	si-	.	2g\	Si-	.	(4g\	Si-	.	(4b\	Si-	.	.	.	.	4G/	.	4g\	.	.	.	4gg\	.	4bb\	.
.	.	.	.	.	8g\J	.	8b\J	.	8gg\J	.	.	.	.	.	.	.	.	.	.	.	.	.	.	.	.	.	.	.	.	.	.	.	.	.	.	.
4A\	3	.	4A\	.	8an\L	.	8ccn\L	.	8gg\L	.	.	4An/	.	.	.	.	.	4an\)	.	.	4ccn\	.	.	.	.	.	4G/	.	4g\	.	.	.	4aan\	.	4cccn\	.
.	.	.	.	.	8a\	.	8cc\	.	8gg\	.	.	.	.	.	.	.	.	.	.	.	.	.	.	.	.	.	.	.	.	.	.	.	.	.	.	.
4B\	3	.	4B\	.	8b\	.	8dd\	.	8gg\	.	4G\	4B/	-cut	.	4g\	-cut	.	4b\	-cut	.	4dd\)	-cut	.	.	.	.	4G/	.	4g\	.	.	.	4bb\	.	4ddd\	.
.	.	.	.	.	8b\J	.	8dd\J	.	8gg\J	.	.	.	.	.	.	.	.	.	.	.	.	.	.	.	.	.	.	.	.	.	.	.	.	.	.	.
=62	=62	=62	=62	=62	=62	=62	=62	=62	=62	=62	=62	=62	=62	=62	=62	=62	=62	=62	=62	=62	=62	=62	=62	=62	=62	=62	=62	=62	=62	=62	=62	=62	=62:||	=62	=62:||	=62
*	*	*	*	*	*tremolo	*	*tremolo	*	*rep	*	*	*	*	*	*	*	*	*	*	*	*	*	*	*	*	*	*	*	*	*	*	*	*	*	*	*
2c\	3	.	2c\	.	8cc\L	.	8ee\L	.	8gg\L	.	1G	2c/	e-	.	1g	e-	.	2cc\	e-	.	(2ee\	e-	.	1ryy	1ryy	1ryy	2G/	.	2g\	.	1ryy	1ryy	2ccc\yy	.	2eee\yy	.
.	.	.	.	.	8cc\	.	8ee\	.	8gg\	.	.	.	.	.	.	.	.	.	.	.	.	.	.	.	.	.	.	.	.	.	.	.	.	.	.	.
.	.	.	.	.	8cc\	.	8ee\	.	8gg\	.	.	.	.	.	.	.	.	.	.	.	.	.	.	.	.	.	.	.	.	.	.	.	.	.	.	.
.	.	.	.	.	8cc\J	.	8ee\J	.	8gg\J	.	.	.	.	.	.	.	.	.	.	.	.	.	.	.	.	.	.	.	.	.	.	.	.	.	.	.
*	*	*	*	*	*Xtremolo	*	*Xtremolo	*	*	*	*	*	*	*	*	*	*	*	*	*	*	*	*	*	*	*	*	*	*	*	*	*	*	*	*	*
4B\	3	.	4B\	.	8b\L	.	8dd\L	.	8gg\L	.	.	4B/	.	.	.	.	.	4b\	.	.	4dd\	.	.	.	.	.	2r	.	2r	.	.	.	4bb\yy	.	4ddd\yy	.
.	.	.	.	.	8b\	.	8dd\	.	8gg\	.	.	.	.	.	.	.	.	.	.	.	.	.	.	.	.	.	.	.	.	.	.	.	.	.	.	.
4A#X\	3	.	4A#X\	.	8a#X\	.	8cc#X\	.	8gg\	.	.	4A#X/	.	.	.	.	.	4a#X\	.	.	4cc#X\)	.	.	.	.	.	.	.	.	.	.	.	4aa#X\yy	.	4ccc#X\yy	.
.	.	.	.	.	8a#\J	.	8cc#\J	.	8gg\J	.	.	.	.	.	.	.	.	.	.	.	.	.	.	.	.	.	.	.	.	.	.	.	.	.	.	.
*	*	*	*	*	*	*	*	*	*Xrep	*	*	*	*	*	*	*	*	*	*	*	*	*	*	*	*	*	*	*	*	*	*	*	*	*	*	*
!	!	!	!LO:LB:g=original	!	!	!	!LO:LB:g=original	!	!LO:LB:g=original	!	!	!	!	!	!	!	!	!	!	!	!	!	!	!	!	!	!	!	!	!	!	!	!	!	!	!
=63	=63	=63	=63	=63	=63	=63	=63	=63	=63	=63	=63	=63	=63	=63	=63	=63	=63	=63	=63	=63	=63	=63	=63	=63	=63	=63	=63	=63	=63	=63	=63	=63	=63	=63	=63	=63
*	*	*	*	*	*	*	*	*	*	*	*	*	*	*	*	*	*	*^	*	*	*	*	*	*	*	*	*	*	*	*	*	*	*	*	*	*
!	!	!	!	!	!	!LO:DY:a	!	!	!	!	!	!	!	!	!	!	!	!	!	!	!	!	!	!	!	!	!	!	!	!	!	!	!	!	!	!	!
4B\	3	.	4B\	.	8b\L	<	8dd\L	.	8gg\L	.	4G\	4B/	-rat	.	4g\	-rat	.	4b\	2.ryy	-rat	.	4dd\	-rat	.	1ryy	1ryy	1ryy	4G/	.	4g\	.	1ryy	1ryy	4bb\yy	.	4ddd\yy	.
.	.	.	.	.	8b\	.	8dd\	.	8gg\	.	.	.	.	.	.	.	.	.	.	.	.	.	.	.	.	.	.	.	.	.	.	.	.	.	.	.	.
*	*	*	*	*	*	*	*	*	*	*	*	*	*	*	*	*ij	*	*	*	*	*	*	*	*	*	*	*	*	*	*	*	*	*	*	*	*	*
4G\	3	.	4G\	.	8g\	.	8b\	.	8gg\	.	2G\	4G/	si-	.	2g\	Si-	.	(4g\	.	Si-	.	4b\	Si-	.	.	.	.	4G/	.	4g\	.	.	.	4gg\yy	.	4bb\yy	.
.	.	.	.	.	8g\J	.	8b\J	.	8gg\J	.	.	.	.	.	.	.	.	.	.	.	.	.	.	.	.	.	.	.	.	.	.	.	.	.	.	.	.
4A\	3	.	4A\	.	8a\L	.	8ccn\L	.	8gg\L	.	.	4A/	.	.	.	.	.	4an\)	.	.	.	4ccn\	.	.	.	.	.	4G/	.	4g\	.	.	.	4aan\yy	.	4cccn\yy	.
.	.	.	.	.	8a\	.	8cc\	.	8gg\	.	.	.	.	.	.	.	.	.	.	.	.	.	.	.	.	.	.	.	.	.	.	.	.	.	.	.	.
4B\	3	.	4B\	.	8b\	.	8dd\	.	8gg\	.	4G\	4B/	-cut	.	4g\	-cut	.	4b/	4g\	-cut	.	4dd\	-cut	.	.	.	.	4G/	.	4g\	.	.	.	4bb\yy	.	4ddd\yy	.
.	.	.	.	.	8b\J	[[	8dd\J	.	8gg\J	.	.	.	.	.	.	.	.	.	.	.	.	.	.	.	.	.	.	.	.	.	.	.	.	.	.	.	.
*	*	*	*	*	*	*	*	*	*	*	*	*	*	*	*	*	*	*v	*v	*	*	*	*	*	*	*	*	*	*	*	*	*	*	*	*	*	*
!	!	!	!	!	!	!	!	!	!	!	!	!	!	!	!LO:LB:g=original	!	!	!	!	!	!	!LO:LB:g=original	!	!	!	!	!	!	!	!	!	!	!	!	!LO:LB:g=original	!
=64	=64	=64	=64	=64	=64	=64	=64	=64	=64	=64	=64	=64	=64	=64	=64	=64	=64	=64	=64	=64	=64	=64	=64	=64	=64	=64	=64	=64	=64	=64	=64	=64	=64	=64	=64	=64
*	*	*	*	*	*tremolo	*	*tremolo	*	*	*	*	*	*	*	*	*	*	*	*	*	*	*	*	*	*	*	*	*	*	*	*	*	*	*	*	*
!	!	!	!	!	!	!	!	!	!	!	!	!	!	!	!	!	!	!	!	!	!	!	!	!	!	!	!	!	!	!	!	!	!	!	!LO:TX:t=c	!
4c\	3	.	4c\	.	8cc\L	.	8ee\L	.	8gg\L	.	4C\	4c/	e-	.	4g\	e-	.	4cc\	e-	.	4ee\	e-	.	1ryy	1ryy	1ryy	4G/	.	4g\	.	1ryy	1ryy	2ccc\	.	2ccc\	.
.	.	.	.	.	8cc\	.	8ee\	.	8gg\	.	.	.	.	.	.	.	.	.	.	.	.	.	.	.	.	.	.	.	.	.	.	.	.	.	.	.
4c\	.	.	4c\	.	8cc\	.	8ee\	.	8gg\	.	4C\	4c/	-rat	.	4g\	-rat	.	4cc\	-rat	.	4ee\	-rat	.	.	.	.	4r	.	4r	.	.	.	.	.	.	.
.	.	.	.	.	8cc\J	.	8ee\J	.	8gg\J	.	.	.	.	.	.	.	.	.	.	.	.	.	.	.	.	.	.	.	.	.	.	.	.	.	.	.
*	*	*	*	*	*	*	*	*	*	*	*	*	*	*	*	*Xij	*	*	*	*	*	*	*	*	*	*	*	*	*	*	*	*	*	*	*	*
!	!	!	!	!	!	!	!	!	!	!	!	!	!	!	!	!	!	!	!	!	!	!	!	!	!	!	!	!	!	!	!	!	!	!LO:HP:a	!	!
4c#X\	-7_ 5_	.	4c#X\	.	8cc#X\L	.	8ee\L	<	8aa#X\L	<	4C#X\	4c#X/	in	.	4g\	in	.	4cc\	in	.	4ee\	in	.	.	.	.	2G^>/	.	2g^\	.	.	.	2gg\	<	2ccc#X\	.
.	.	.	.	.	8cc#X\	.	8ee\	.	8aa#X\	.	.	.	.	.	.	.	.	.	.	.	.	.	.	.	.	.	.	.	.	.	.	.	.	.	.	.
4c#\	.	.	4c#\	.	8cc#X\	.	8ee\	.	8aa#X\	.	4C#\	4c#/	prin-	.	4g\	prin-	.	4cc\	prin-	.	4ee\	prin-	.	.	.	.	.	.	.	.	.	.	.	.	.	.
.	.	.	.	.	8cc#X\J	.	8ee\J	[	8aa#X\J	[	.	.	.	.	.	.	.	.	.	.	.	.	.	.	.	.	.	.	.	.	.	.	.	[	.	.
!LO:LB:g=original	!	!	!	!	!	!	!	!	!	!	!	!	!	!	!	!	!	!	!	!	!	!	!	!	!	!	!	!	!	!	!	!	!	!	!	!
=65	=65	=65	=65	=65	=65	=65	=65	=65	=65	=65	=65	=65	=65	=65	=65	=65	=65	=65	=65	=65	=65	=65	=65	=65	=65	=65	=65	=65	=65	=65	=65	=65	=65	=65	=65	=65
!	!	!	!	!	!	!	!	!	!	!	!	!	!	!	!	!	!	!	!	!	!	!	!	!	!	!	!	!	!	!	!	!	!	!LO:HP:a	!	!
4d\	6_ 4_	.	4d\	.	8dd\L	.	8gg\L	>	8bb\L	>	2D\	2d/	-ci-	.	2d\	-ci-	.	2b\	-ci-	.	2dd\	-ci-	.	1ryy	1ryy	1ryy	2g\	.	2b^\	.	1ryy	1ryy	2bb\	>	2ddd\	.
.	.	.	.	.	8dd\	.	8gg\	.	8bb\	.	.	.	.	.	.	.	.	.	.	.	.	.	.	.	.	.	.	.	.	.	.	.	.	.	.	.
4d\	.	.	4d\	.	8dd\	.	8gg\	.	8bb\	.	.	.	.	.	.	.	.	.	.	.	.	.	.	.	.	.	.	.	.	.	.	.	.	.	.	.
.	.	.	.	.	8dd\J	.	8gg\J	]	8bb\J	]	.	.	.	.	.	.	.	.	.	.	.	.	.	.	.	.	.	.	.	.	.	.	.	]	.	.
4D/	5_ 3_	.	4D\	.	8d\L	.	8ff#\L	.	8aan\L	.	2D\	2ryy	-pi-	.	2c\	-pi-	.	2a\	-pi-	.	2ff#\	-pi-	.	.	.	.	2d\	.	2a\	.	.	.	2aa\	.	2cccn\	.
.	.	.	.	.	8d\	.	8ff#\	.	8aan\	.	.	.	.	.	.	.	.	.	.	.	.	.	.	.	.	.	.	.	.	.	.	.	.	.	.	.
4D/	.	.	4D\	.	8d\	.	8ff#\	.	8aan\	.	.	.	.	.	.	.	.	.	.	.	.	.	.	.	.	.	.	.	.	.	.	.	.	.	.	.
.	.	.	.	.	8d\J	.	8ff#\J	.	8aan\J	.	.	.	.	.	.	.	.	.	.	.	.	.	.	.	.	.	.	.	.	.	.	.	.	.	.	.
*	*	*	*	*	*	*	*	*	*	*	*v	*v	*	*	*	*	*	*	*	*	*	*	*	*	*	*	*	*	*	*	*	*	*	*	*	*
!	!	!	!	!	!	!	!	!	!	!	!	!	!	!	!	!	!	!	!	!	!	!	!	!	!	!	!	!	!	!	!	!	!LO:LB:g=original	!	!
=66	=66	=66	=66	=66	=66	=66	=66	=66	=66	=66	=66	=66	=66	=66	=66	=66	=66	=66	=66	=66	=66	=66	=66	=66	=66	=66	=66	=66	=66	=66	=66	=66	=66	=66	=66
*	*	*	*	*	*	*	*	*	*	*	*	*	*	*^	*	*	*^	*	*	*	*	*	*	*	*	*	*	*	*	*	*	*	*	*	*
*	*	*	*	*	*Xtremolo	*	*Xtremolo	*	*	*	*	*	*	*	*	*Xij	*	*	*Xij	*	*	*Xij	*	*	*	*	*	*	*	*	*	*	*	*	*	*	*
4G\	8_ 3_	.	4GG/	.	8b\L	.	8gg\L	.	8gg\L	.	4G\	-o	.	4B\	4rddyy	-o	.	4g/	2ryy	-o	.	4gg\	-o	.	1ryy	1ryy	1ryy	4B/	.	4g\	.	1ryy	1ryy	4gg\	.	4bb\	.
.	.	.	.	.	8b\	.	8gg\	.	8gg\	.	.	.	.	.	.	.	.	.	.	.	.	.	.	.	.	.	.	.	.	.	.	.	.	.	.	.	.
4G\	.	.	4G\	.	8g\	.	8b\	.	8gg\	.	4G\	et	.	4B\	2g/	et	.	4g/	.	et	.	4b\	et	.	.	.	.	4G/	.	4g\	.	.	.	4gg\	.	4bb\	.
.	.	.	.	.	8g\J	.	8b\J	.	8gg\J	.	.	.	.	.	.	.	.	.	.	.	.	.	.	.	.	.	.	.	.	.	.	.	.	.	.	.	.
*	*	*	*	*	*	*	*	*	*	*	*	*	*	*	*	*	*	*	*	*	*	*	*	*	*	*	*	*	*	*	*	*	*	*	*	*	*
!	!	!	!	!	!LO:LB:g=original	!	!	!	!	!	!	!	!	!	!	!	!	!	!	!	!	!	!	!	!	!	!	!	!	!	!	!	!	!	!	!	!
4A\	.	.	4A\	.	8a\L	.	8cc\L	.	8gg\L	.	4A\	nunc	.	4c\	.	nunc	.	4a/	4g\	nunc	.	4cc\	nunc	.	.	.	.	4G/	.	4g\	.	.	.	4aa\	.	4ccc\	.
.	.	.	.	.	8a\	.	8cc\	.	8gg\	.	.	.	.	.	.	.	.	.	.	.	.	.	.	.	.	.	.	.	.	.	.	.	.	.	.	.	.
4B\	.	.	4B\	.	8b\	.	8dd\	.	8gg\	.	4B\	et	.	4d\	4g/	et	.	4b/	4g\	et	.	4dd\	et	.	.	.	.	4G/	.	4g\	.	.	.	4bb\	.	4ddd\	.
.	.	.	.	.	8b\J	.	8dd\J	.	8gg\J	.	.	.	.	.	.	.	.	.	.	.	.	.	.	.	.	.	.	.	.	.	.	.	.	.	.	.	.
!	!	!	!	!	!	!	!	!	!	!	!	!	!	!	!	!	!	!	!	!	!	!	!	!	!	!	!	!LO:LB:g=original	!	!	!	!	!	!	!	!	!
=67	=67	=67	=67	=67	=67	=67	=67	=67	=67	=67	=67	=67	=67	=67	=67	=67	=67	=67	=67	=67	=67	=67	=67	=67	=67	=67	=67	=67	=67	=67	=67	=67	=67	=67||:	=67	=67||:	=67
!	!	!	!	!	!	!	!	!	!	!	!	!	!	!	!	!	!	!	!	!	!	!	!	!	!	!	!	!	!	!	!	!	!	!	!	!	!
*	*	*	*	*	*tremolo	*	*tremolo	*	*rep	*	*	*	*	*	*	*	*	*	*	*	*	*	*	*	*	*	*	*	*	*	*	*	*	*	*	*	*
2c\	.	.	2c\	.	8cc\L	.	8ee\L	.	8gg\L	.	2c\	sem-	.	2e\	[>1g	Sem-	.	2cc/	[1g	sem-	.	2ee\	Sem-	.	1ryy	1ryy	1ryy	2G/	.	2g^\	.	1ryy	1ryy	2ccc\	.	2eee\	.
.	.	.	.	.	8cc\	.	8ee\	.	8gg\	.	.	.	.	.	.	.	.	.	.	.	.	.	.	.	.	.	.	.	.	.	.	.	.	.	.	.	.
.	.	.	.	.	8cc\	.	8ee\	.	8gg\	.	.	.	.	.	.	.	.	.	.	.	.	.	.	.	.	.	.	.	.	.	.	.	.	.	.	.	.
.	.	.	.	.	8cc\J	.	8ee\J	.	8gg\J	.	.	.	.	.	.	.	.	.	.	.	.	.	.	.	.	.	.	.	.	.	.	.	.	.	.	.	.
*	*	*	*	*	*Xtremolo	*	*Xtremolo	*	*	*	*	*	*	*	*	*	*	*	*	*	*	*	*	*	*	*	*	*	*	*	*	*	*	*	*	*	*
4B\	.	.	4B\	.	8b\L	.	8dd\L	.	8gg\L	.	4B\	.	.	4d\	.	.	.	4b/	.	.	.	(4dd\	.	.	.	.	.	2r	.	2r	.	.	.	4bb\	.	4ddd\	.
.	.	.	.	.	8b\	.	8dd\	.	8gg\	.	.	.	.	.	.	.	.	.	.	.	.	.	.	.	.	.	.	.	.	.	.	.	.	.	.	.	.
4A#X\	.	.	4A#X\	.	8a#X\	.	8cc#X\	.	8gg\	.	4A#X\	.	.	4c#X\	.	.	.	4a#X/	.	.	.	4cc#X\)	.	.	.	.	.	.	.	.	.	.	.	4aa#X\	.	4ccc#X\	.
.	.	.	.	.	8a#\J	.	8cc#\J	.	8gg\J	.	.	.	.	.	.	.	.	.	.	.	.	.	.	.	.	.	.	.	.	.	.	.	.	.	.	.	.
*	*	*	*	*	*	*	*	*	*Xrep	*	*	*	*	*	*	*	*	*	*	*	*	*	*	*	*	*	*	*	*	*	*	*	*	*	*	*	*
!	!	!	!	!	!	!	!	!	!	!	!	!	!	!	!	!	!	!	!	!	!	!	!	!	!	!	!	!	!	!LO:LB:g=original	!	!	!	!	!	!	!
=68	=68	=68	=68	=68	=68	=68	=68	=68	=68	=68	=68	=68	=68	=68	=68	=68	=68	=68	=68	=68	=68	=68	=68	=68	=68	=68	=68	=68	=68	=68	=68	=68	=68	=68	=68	=68	=68
*	*	*	*	*	*	*	*	*	*rep	*	*	*	*	*	*	*	*	*	*	*	*	*	*	*	*	*	*	*	*	*	*	*	*	*	*	*	*
4B\	.	.	4B\	.	8b\L	.	8dd\L	.	8gg\L	.	4B\	-per	.	4d\	4g/]	-per	.	4b/	4g\]	-per	.	4dd\	-per	.	1ryy	1ryy	1ryy	4G/	.	4g\	.	1ryy	1ryy	4bb\	.	4ddd\	.
.	.	.	.	.	8b\	.	8dd\	.	8gg\	.	.	.	.	.	.	.	.	.	.	.	.	.	.	.	.	.	.	.	.	.	.	.	.	.	.	.	.
4G\	.	.	4G\	.	8g\	.	8b\	.	8gg\	.	4G\	et	.	4B\	4g/	et	.	4ryy	4g\	et	.	4b\	et	.	.	.	.	4G/	.	4g\	.	.	.	4gg\	.	4bb\	.
.	.	.	.	.	8g\J	.	8b\J	.	8gg\J	.	.	.	.	.	.	.	.	.	.	.	.	.	.	.	.	.	.	.	.	.	.	.	.	.	.	.	.
4A\	.	.	4A\	.	8a\L	.	8ccn\L	.	8gg\L	.	4An\	nunc	.	4cn\	4g/	nunc	.	4an/	4g\	nunc	.	4ccn\	nunc	.	.	.	.	4G/	.	4g\	.	.	.	4aan\	.	4cccn\	.
.	.	.	.	.	8a\	.	8cc\	.	8gg\	.	.	.	.	.	.	.	.	.	.	.	.	.	.	.	.	.	.	.	.	.	.	.	.	.	.	.	.
4B\	.	.	4B\	.	8b\	.	8dd\	.	8gg\	.	4B\	et	.	4d\	4g/	et	.	4b/	4g\	et	.	4dd\	et	.	.	.	.	4G/	.	4g\	.	.	.	4bb\	.	4ddd\	.
.	.	.	.	.	8b\J	.	8dd\J	.	8gg\J	.	.	.	.	.	.	.	.	.	.	.	.	.	.	.	.	.	.	.	.	.	.	.	.	.	.	.	.
!	!	!	!	!	!	!	!LO:LB:g=original	!	!	!	!LO:LB:g=original	!	!	!	!	!	!	!	!	!	!	!	!	!	!	!	!	!	!	!	!	!	!	!	!	!	!
*	*	*	*	*	*	*	*	*	*Xrep	*	*	*	*	*	*	*	*	*	*	*	*	*	*	*	*	*	*	*	*	*	*	*	*	*	*	*	*
=69	=69	=69	=69	=69	=69	=69	=69	=69	=69	=69	=69	=69	=69	=69	=69	=69	=69	=69	=69	=69	=69	=69	=69	=69	=69	=69	=69	=69	=69	=69	=69	=69	=69	=69:||	=69	=69:||	=69
*	*	*	*	*	*tremolo	*	*tremolo	*	*rep	*	*	*	*	*	*	*	*	*	*	*	*	*	*	*	*	*	*	*	*	*	*	*	*	*	*	*	*
2c\	.	.	2c\	.	8cc\L	.	8ee\L	.	8gg\L	.	2c\	Sem-	.	2e\	[>1g	Sem-	.	2cc/	[1g	Sem-	.	2ee\	Sem-	.	1ryy	1ryy	1ryy	2G/	.	1ryy	.	1ryy	1ryy	2ccc\yy	.	2eee\yy	.
.	.	.	.	.	8cc\	.	8ee\	.	8gg\	.	.	.	.	.	.	.	.	.	.	.	.	.	.	.	.	.	.	.	.	.	.	.	.	.	.	.	.
.	.	.	.	.	8cc\	.	8ee\	.	8gg\	.	.	.	.	.	.	.	.	.	.	.	.	.	.	.	.	.	.	.	.	.	.	.	.	.	.	.	.
.	.	.	.	.	8cc\J	.	8ee\J	.	8gg\J	.	.	.	.	.	.	.	.	.	.	.	.	.	.	.	.	.	.	.	.	.	.	.	.	.	.	.	.
*	*	*	*	*	*Xtremolo	*	*Xtremolo	*	*	*	*	*	*	*	*	*	*	*	*	*	*	*	*	*	*	*	*	*	*	*	*	*	*	*	*	*	*
4B\	.	.	4B\	.	8b\L	.	8dd\L	.	8gg\L	.	4B\	.	.	4d\	.	.	.	4b/	.	.	.	(4dd\	.	.	.	.	.	2r	.	.	.	.	.	4bb\yy	.	4ddd\yy	.
.	.	.	.	.	8b\	.	8dd\	.	8gg\	.	.	.	.	.	.	.	.	.	.	.	.	.	.	.	.	.	.	.	.	.	.	.	.	.	.	.	.
4A#X\	.	.	4A#X\	.	8a#X\	.	8cc#X\	.	8gg\	.	4A#X\	.	.	4c#X\	.	.	.	4a#X/	.	.	.	4cc#X\)	.	.	.	.	.	.	.	.	.	.	.	4aa#X\yy	.	4ccc#X\yy	.
.	.	.	.	.	8a#\J	.	8cc#\J	.	8gg\J	.	.	.	.	.	.	.	.	.	.	.	.	.	.	.	.	.	.	.	.	.	.	.	.	.	.	.	.
!	!	!	!LO:LB:g=original	!	!	!	!	!	!	!	!	!	!	!	!	!	!	!LO:LB:g=original	!	!	!	!	!	!	!	!	!	!	!	!	!	!	!	!	!	!	!
*	*	*	*	*	*	*	*	*	*Xrep	*	*	*	*	*	*	*	*	*	*	*	*	*	*	*	*	*	*	*	*	*	*	*	*	*	*	*	*
=70	=70	=70	=70	=70	=70	=70	=70	=70	=70	=70	=70	=70	=70	=70	=70	=70	=70	=70	=70	=70	=70	=70	=70	=70	=70	=70	=70	=70	=70	=70	=70	=70	=70	=70	=70	=70	=70
*	*	*	*	*	*	*	*	*	*rep	*	*	*	*	*	*	*	*	*	*	*	*	*	*	*	*	*	*	*	*	*	*	*	*	*	*	*	*
4B\	.	.	4B\	.	8b\L	.	8dd\L	.	8gg\L	.	4B\	-per	.	4d\	4g/]	-per	.	4b/	4g\]	-per	.	4dd\	-per	.	1ryy	1ryy	1ryy	4G/	.	1ryy	.	1ryy	1ryy	4bb\yy	.	4ddd\yy	.
.	.	.	.	.	8b\	.	8dd\	.	8gg\	.	.	.	.	.	.	.	.	.	.	.	.	.	.	.	.	.	.	.	.	.	.	.	.	.	.	.	.
4G\	.	.	4G\	.	8g\	.	8b\	.	8gg\	.	(4G\	et	.	(4B\	2g/	et	.	4reyy	4g\	.	.	(4b\	et	.	.	.	.	4G/	.	.	.	.	.	4gg\yy	.	4bb\yy	.
.	.	.	.	.	8g\J	.	8b\J	.	8gg\J	.	.	.	.	.	.	.	.	.	.	.	.	.	.	.	.	.	.	.	.	.	.	.	.	.	.	.	.
!	!	!	!	!	!	!	!	!	!	!	!	!	!	!	!	!	!	!LO:N:vis=2	!	!	!	!	!	!	!	!	!	!	!	!	!	!	!	!	!	!	!
4A\	.	.	4A\	.	8a\L	.	8cc\L	.	8gg\L	.	4An\)	.	.	4cn\)	.	.	.	4an/	4g\	et	.	4ccn\	.	.	.	.	.	4G/	.	.	.	.	.	4aan\yy	.	4cccn\yy	.
.	.	.	.	.	8a\	.	8cc\	.	8gg\	.	.	.	.	.	.	.	.	.	.	.	.	.	.	.	.	.	.	.	.	.	.	.	.	.	.	.	.
4B\	.	.	4B\	.	8b\	.	8dd\	.	8gg\	.	4B\	in	.	4d\	4g/	in	.	4b/	4g\	in	.	4dd\)	in	.	.	.	.	4G/	.	.	.	.	.	4bb\yy	.	4ddd\yy	.
.	.	.	.	.	8b\J	.	8dd\J	.	8gg\J	.	.	.	.	.	.	.	.	.	.	.	.	.	.	.	.	.	.	.	.	.	.	.	.	.	.	.	.
!	!	!	!	!	!	!	!	!	!	!	!	!	!	!LO:LB:g=original	!	!	!	!	!	!	!	!LO:LB:g=original	!	!	!	!	!	!	!	!	!	!	!	!	!	!	!
*	*	*	*	*	*tremolo	*	*tremolo	*	*Xrep	*	*	*	*	*	*	*	*	*	*	*	*	*	*	*	*	*	*	*	*	*	*	*	*	*	*	*	*
=71	=71	=71	=71	=71	=71	=71	=71	=71	=71	=71	=71	=71	=71	=71	=71	=71	=71	=71	=71	=71	=71	=71	=71	=71	=71	=71	=71	=71	=71	=71	=71	=71	=71	=71	=71	=71	=71
4c\	.	.	4c\	.	8cc\L	.	8cc\L	.	8gg\L	.	4.c\	Sae-	.	4.e\	4.g/	sae-	.	4.cc/	4.g\	Sae-	.	4.ee\	Se-	.	1ryy	1ryy	1ryy	4G/	.	4g\	.	1ryy	1ryy	2ccc^\	.	2eee\	.
.	.	.	.	.	8cc\	.	8cc\	.	8gg\	.	.	.	.	.	.	.	.	.	.	.	.	.	.	.	.	.	.	.	.	.	.	.	.	.	.	.	.
4c\	.	.	4c\	.	8cc\	.	8cc\	.	8gg\	.	.	.	.	.	.	.	.	.	.	.	.	.	.	.	.	.	.	4r	.	4r	.	.	.	.	.	.	.
.	.	.	.	.	8cc\J	.	8cc\J	.	8gg\J	.	8c\	-cu-	.	8e\	8g/	-cu-	.	8cc/	8g\	-cu-	.	8ee\	-cu-	.	.	.	.	.	.	.	.	.	.	.	.	.	.
4c#X\	-7_ 5_	.	4c#X\	.	8cc#X\L	.	8ee\L	.	8aa#X\L	.	2c#X\	-la	.	2e\	2g/	-la	.	2a#X/	2g\	-la	.	2ee\	-la	.	.	.	.	2G^/	.	2g^\	.	.	.	2aa#X\	.	2ccc#X\	.
.	.	.	.	.	8cc#X\	.	8ee\	.	8aa#X\	.	.	.	.	.	.	.	.	.	.	.	.	.	.	.	.	.	.	.	.	.	.	.	.	.	.	.	.
4c#\	.	.	4c#\	.	8cc#X\	.	8ee\	.	8aa#X\	.	.	.	.	.	.	.	.	.	.	.	.	.	.	.	.	.	.	.	.	.	.	.	.	.	.	.	.
.	.	.	.	.	8cc#X\J	.	8ee\J	.	8aa#X\J	.	.	.	.	.	.	.	.	.	.	.	.	.	.	.	.	.	.	.	.	.	.	.	.	.	.	.	.
*	*	*	*	*	*	*	*	*	*	*	*	*	*	*v	*v	*	*	*	*	*	*	*	*	*	*	*	*	*	*	*	*	*	*	*	*	*	*
!LO:LB:g=original	!	!	!	!	!LO:LB:g=original	!	!	!	!	!	!	!	!	!	!	!	!	!	!	!	!	!	!	!	!	!	!	!	!	!	!	!	!	!	!	!
=72	=72	=72	=72	=72	=72	=72	=72	=72	=72	=72	=72	=72	=72	=72	=72	=72	=72	=72	=72	=72	=72	=72	=72	=72	=72	=72	=72	=72	=72	=72	=72	=72	=72	=72	=72	=72
4d\	6_ 4_	.	4d\	.	8dd\L	.	8gg\L	.	8bb\L	.	4d\	Sae-	.	4d\	Sae-	.	4b/	4g\	Sae-	.	4dd\	Se-	.	1ryy	1ryy	1ryy	2g\	.	2b\	.	1ryy	1ryy	2bb\	.	2ddd\	.
.	.	.	.	.	8dd\	.	8gg\	.	8bb\	.	.	.	.	.	.	.	.	.	.	.	.	.	.	.	.	.	.	.	.	.	.	.	.	.	.	.
4d\	.	.	4d\	.	8dd\	.	8gg\	.	8bb\	.	4d\	-cu-	.	4d\	-cu-	.	4b/	4g\	-cu-	.	4dd\	-cu-	.	.	.	.	.	.	.	.	.	.	.	.	.	.
.	.	.	.	.	8dd\J	.	8gg\J	.	8bb\J	.	.	.	.	.	.	.	.	.	.	.	.	.	.	.	.	.	.	.	.	.	.	.	.	.	.	.
4d\	.	.	4d\	.	8dd\L	.	8gg\L	.	8bb\L	.	4d\	-lo-	.	4d\	-lo-	.	4b/	4g\	-lo-	.	4dd\	-lo-	.	.	.	.	4g\	.	4b\	.	.	.	4bb\	.	4ddd\	.
.	.	.	.	.	8dd\	.	8gg\	.	8bb\	.	.	.	.	.	.	.	.	.	.	.	.	.	.	.	.	.	.	.	.	.	.	.	.	.	.	.
4d\	.	.	4d\	.	8dd\	.	8gg\	.	8bb\	.	4d\	-rum	.	4d\	-rum	.	4b/	4g\	-rum	.	4dd\	-rum	.	.	.	.	4g\	.	4b\	.	.	.	4bb\	.	4ddd\	.
.	.	.	.	.	8dd\J	.	8gg\J	.	8bb\J	.	.	.	.	.	.	.	.	.	.	.	.	.	.	.	.	.	.	.	.	.	.	.	.	.	.	.
=73	=73	=73	=73	=73	=73	=73	=73	=73	=73	=73	=73	=73	=73	=73	=73	=73	=73	=73	=73	=73	=73	=73	=73	=73	=73	=73	=73	=73	=73	=73	=73	=73	=73	=73	=73	=73
4D\	5_ 4_	.	4D\	.	8d\L	.	8ff#\L	.	8aa\L	.	1D	A-	.	1d	A-	.	1an	2g\	a	.	1ff#	A-	.	1ryy	1ryy	1ryy	2d/	.	2a\	.	1ryy	1ryy	2ccc\	.	2fff#\	.
.	.	.	.	.	8d\	.	8ff#\	.	8aa\	.	.	.	.	.	.	.	.	.	.	.	.	.	.	.	.	.	.	.	.	.	.	.	.	.	.	.
4D\	.	.	4D\	.	8d\	.	8ff#\	.	8aa\	.	.	.	.	.	.	.	.	.	.	.	.	.	.	.	.	.	.	.	.	.	.	.	.	.	.	.
.	.	.	.	.	8d\J	.	8ff#\J	.	8aa\J	.	.	.	.	.	.	.	.	.	.	.	.	.	.	.	.	.	.	.	.	.	.	.	.	.	.	.
!	!	!	!	!	!	!	!	!	!	!	!	!	!	!	!	!	!	!	!	!	!	!	!	!	!	!	!	!	!	!	!	!	!	!	!	!
4D\	x 3_	.	4D\	.	8d\L	.	8ff#\L	.	8ddd\L	.	.	.	.	.	.	.	.	2f#\	.	.	.	.	.	.	.	.	4d/	.	4a\	.	.	.	4ccc\	.	4fff#\	.
.	.	.	.	.	8d\	.	8ff#\	.	8ddd\	.	.	.	.	.	.	.	.	.	.	.	.	.	.	.	.	.	.	.	.	.	.	.	.	.	.	.
4D\	.	.	4D\	.	8d\	.	8ff#\	.	8ddd\	.	.	.	.	.	.	.	.	.	.	.	.	.	.	.	.	.	4d/	.	4a\	.	.	.	4ccc\	.	4fff#\	.
.	.	.	.	.	8d\J	.	8ff#\J	.	8ddd\J	.	.	.	.	.	.	.	.	.	.	.	.	.	.	.	.	.	.	.	.	.	.	.	.	.	.	.
*	*	*	*	*	*	*	*	*	*Xtremolo	*	*	*	*	*	*	*	*	*	*	*	*	*	*	*	*	*	*	*	*	*	*	*	*	*	*	*
*	*	*	*	*	*	*	*Xtremolo	*	*	*	*	*	*	*	*	*	*	*	*	*	*	*	*	*	*	*	*	*	*	*	*	*	*	*	*	*
*	*	*	*	*	*Xtremolo	*	*	*	*	*	*	*	*	*	*	*	*	*	*	*	*	*	*	*	*	*	*	*	*	*	*	*	*	*	*	*
!	!	!	!	!	!	!	!	!	!LO:LB:g=original	!	!	!	!	!	!	!	!	!	!	!	!	!	!	!	!	!	!	!	!	!	!	!	!	!	!	!
=74	=74	=74	=74	=74	=74	=74	=74	=74	=74	=74	=74	=74	=74	=74	=74	=74	=74	=74	=74	=74	=74	=74	=74	=74	=74	=74	=74	=74	=74	=74	=74	=74	=74	=74	=74	=74
!	!	!	!	!	!	!	!	!	!	!	!	!	!	!	!	!	!	!	!	!	!	!	!	!	!	!	!	!	!	!LO:HP:t=cres	!	!	!	!	!	!
4G\	.	.	4G\	.	4G\ 4d	.	4b\ 4gg	.	4b\ 4gg	.	4G\	-men	.	4d\	-men	.	4b/	4g\	m(en)	.	4gg\	-men	.	1ryy	1ryy	1ryy	4B/	.	4g\	<	1ryy	1ryy	4bb\	.	4ccc\	.
!	!	!	!	!	!	!	!	!	!	!	!	!	!LO:DY:b:t=for	!	!	!	!	!	!	!	!	!	!	!	!	!	!	!	!	!	!	!	!	!	!	!
4r	.	.	4r	.	4r	.	4r	.	4r	.	(4d\	A-	f	4r	.	.	4r	4ryy	.	.	4r	.	.	.	.	.	4r	.	4d/	.	.	.	4r	.	4r	.
2r	.	.	2r	.	2r	.	2r	.	2r	.	4B\	.	.	2r	.	.	2r	2ryy	.	.	2r	.	.	.	.	.	2r	.	4B/	.	.	.	2r	.	2r	.
.	.	.	.	.	.	.	.	.	.	.	4G\)	-m(en)	.	.	.	.	.	.	.	.	.	.	.	.	.	.	.	.	4G/	.	.	.	.	.	.	.
*	*	*	*	*	*	*	*	*	*	*	*	*	*	*	*	*	*v	*v	*	*	*	*	*	*	*	*	*	*	*	*	*	*	*	*	*	*
!	!	!	!	!	!	!	!	!	!	!	!	!	!	!	!	!	!	!	!	!	!	!	!	!	!	!	!	!	!	!	!	!	!	!	!
=75	=75	=75	=75	=75	=75	=75	=75	=75	=75	=75	=75	=75	=75	=75	=75	=75	=75	=75	=75	=75	=75	=75	=75	=75	=75	=75	=75	=75	=75	=75	=75	=75	=75	=75	=75
!	!	!LO:DY:b	!	!	!	!	!	!	!	!	!	!	!	!	!	!	!	!	!	!	!	!LO:DY:b	!	!	!	!	!	!	!	!	!	!	!	!	!
*	*	*	*	*	*	*	*	*	*	*	*	*	*	*	*ij	*	*	*	*	*	*ij	*	*	*	*	*	*	*	*	*	*	*	*	*	*
1D	7_ 5_	fp	1D^	.	1f#^	.	1a^>	.	1c^> 1cc	.	1D	A-	.	1A	A-	.	1d^	a-	.	1cc^	A-	fp	1ryy	1ryy	1ryy	1d^>	.	1D^>	.	1ryy	1ryy	1aa^	.	1ccc^	.
=76	=76	=76	=76	=76	=76	=76	=76	=76	=76	=76	=76	=76	=76	=76	=76	=76	=76	=76	=76	=76	=76	=76	=76	=76	=76	=76	=76	=76	=76	=76	=76	=76	=76	=76	=76
4G\	3	.	4G\	.	4G\ 4g	.	4g/	.	4d/ 4b	.	4G\	-m(en)	.	4G/	-men	.	4d\	-m(en)	.	4b\	-men	.	1ryy	1ryy	1ryy	4B/	.	4G/	.	1ryy	1ryy	4gg\	.	4bb\	.
4r	.	.	4r	.	4r	.	4r	.	4r	.	4d\	A-	.	4r	.	.	4r	.	.	4r	.	.	.	.	.	4r	.	4d/	.	.	.	4r	.	4r	.
2r	.	.	2r	.	2r	.	2r	.	2r	.	4B\	.	.	2r	.	.	2r	.	.	2r	.	.	.	.	.	2r	.	4B/	.	.	.	2r	.	2r	.
.	.	.	.	.	.	.	.	.	.	.	4G\	-m(en)	.	.	.	.	.	.	.	.	.	.	.	.	.	.	.	4G/	.	.	.	.	.	.	.
!	!	!	!	!	!	!	!LO:LB:g=original	!	!	!	!LO:LB:g=original	!	!	!	!	!	!LO:LB:g=original	!	!	!	!	!	!	!	!	!	!	!	!	!	!	!	!	!	!
=77	=77	=77	=77	=77	=77	=77	=77	=77	=77	=77	=77	=77	=77	=77	=77	=77	=77	=77	=77	=77	=77	=77	=77	=77	=77	=77	=77	=77	=77	=77	=77	=77	=77	=77	=77
1D^	.	.	1D^	.	1d^	.	1c^>	.	1A^> 1f#	.	1D	A-	.	1A	A-	.	1d^	a-	.	1f#^>	A-	.	1ryy	1ryy	1ryy	1d^>	.	1D^>	.	1ryy	1ryy	1a	.	1ff#	.
!	!	!	!LO:LB:g=original	!	!	!	!	!	!	!	!	!	!	!	!	!	!	!	!	!	!	!	!	!	!	!	!	!	!	!	!	!	!	!	!
=78	=78	=78	=78	=78	=78	=78	=78	=78	=78	=78	=78	=78	=78	=78	=78	=78	=78	=78	=78	=78	=78	=78	=78	=78	=78	=78	=78	=78	=78	=78	=78	=78	=78	=78	=78
4GG/	.	.	4r	.	4d\	.	4B/	.	4B/ 4g	.	4G\	-men	.	4B\	-men	.	4d\	-m(en)	.	4g\	-men	.	1ryy	1ryy	1ryy	4B/	.	4G/	.	1ryy	1ryy	4b\	.	4gg\	.
*	*	*	*	*	*	*	*	*	*	*	*	*	*	*	*Xij	*	*	*	*	*	*	*	*	*	*	*	*	*	*	*	*	*	*	*	*
4r	.	.	4G\	.	4r	.	4r	.	4r	.	4r	.	.	4r	.	.	4r	.	.	4r	.	.	.	.	.	4r	.	4r	.	.	.	4r	.	4r	.
!	!	!	!	!	!	!	!	!	!	!	!	!	!	!LO:TX:a:t=Noty potrzebnieysze dolne dospiewu\nw Gostyniu 15/16 1839 Białaszewski	!	!	!	!	!	!	!	!	!	!	!	!	!	!	!	!	!	!	!	!	!
!	!	!LO:DY:b	!	!	!	!	!	!	!	!LO:DY:b	!	!	!	!	!	!	!	!	!	!	!	!	!	!	!	!	!	!	!	!	!	!	!	!	!
4G\	.	p	4G\	.	4G/	.	4G/ 4d	.	4B/ 4g	p	2r	.	.	2r	.	.	2r	.	.	2r	.	.	.	.	.	4G/	p	4B/	p	.	.	4b\	.	4gg\	.
4G\	.	.	4r	.	4G/	.	4G/ 4d	.	4B/ 4g	.	.	.	.	.	.	.	.	.	.	.	.	.	.	.	.	4G/	.	4B/	.	.	.	4b\	.	4gg\	.
=79	=79	=79	=79	=79	=79	=79	=79	=79	=79	=79	=79	=79	=79	=79	=79	=79	=79	=79	=79	=79	=79	=79	=79	=79	=79	=79	=79	=79	=79	=79	=79	=79	=79	=79	=79
!	!	!	!	!	!	!	!	!	!	!	!LO:TX:a:t=Notabene Noty dolne potrzebnieysze jak gorne dospiewu	!	!	!	!	!	!	!	!	!	!	!	!	!	!	!	!	!	!	!	!	!	!	!	!
2GG/	.	.	2GG/	.	2G/	.	2G/ 2d	.	2B/ 2g	.	1r	.	.	1r	.	.	1r	.	.	1r	.	.	1ryy	1ryy	1ryy	2G/	.	2B/	.	1ryy	1ryy	2b\	.	2gg\	.
!	!	!	!	!	!LO:TX:b:t=Białoszewski\nGistyn 5/16 1839	!	!LO:TX:b:t=w Gostyniu\n15/16 1839 Białaszewski	!	!	!	!	!	!	!	!	!	!	!	!	!	!	!	!	!	!	!	!	!	!	!	!	!	!	!	!
2r	.	.	2r	.	2r	.	2r	.	2r	.	.	.	.	.	.	.	.	.	.	.	.	.	.	.	.	2r	.	2r	.	.	.	2r	.	2r	.
==	==	==	==	==	==	==	==	==	==	==	==	==	==	==	==	==	==	==	==	==	==	==	==	==	==	==	==	==	==	==	==	==	==	==	==
*-	*-	*-	*-	*-	*-	*-	*-	*-	*-	*-	*-	*-	*-	*-	*-	*-	*-	*-	*-	*-	*-	*-	*-	*-	*-	*-	*-	*-	*-	*-	*-	*-	*-	*-	*-
!!!system-decoration: [(s1,s2,s3,s4)][(s5,s6,s7,s8)][(s9)][(s10,s11,s12,s13)][(s14,s15,s16,s17)]s18
!!!RDF**kern: > = above
!!!RDF**kern: < = below
!!!ENC: Berenika Jozajtis
!!!END: 2020-07-23
!!!ENC: Natalia Wrzos
!!!END: 2022-02-27
